N00000 (.../Eagle_PCB_gcode/pcb-gcode-3/pcb-gcode.ulp)
N00010 (Copyright 2005 - 2012 by John Johnson)
N00020 (See readme.txt for licensing terms.)
N00030 (This file generated from the board:)
N00040 (.../EagleCAD_BrdDesign/Board1_V3_singleSIded.brd)
N00050 (Current profile is .../pcb-gcode-3/profiles/generic.pp  )
N00060 (This file generated 8/26/15 4:57 PM)
N00070 (Settings from pcb-machine.h)
N00080 (spindle on time = 3.0000)
N00090 (  Tool Size)
N00100 (0.1778 )
N00110 (spindle speed = 30000.0000)
N00120 (tool change at 0.0000 0.0000 25.4000 )
N00130 (feed rate xy = F1000.00 )
N00140 (feed rate z  = F254.00 )
N00150 (Z Axis Settings)
N00160 (  High     Up        Down     Drill)
N00170 (12.7000 	2.5400 	-0.1778 	-0.8128 )
N00180 (Settings from pcb-defaults.h)
N00190 (isolate min = 0.0100)
N00200 (isolate max = 0.0500)
N00210 (isolate step = 0.0500)
N00220 (Generated bottom outlines, )
N00230 (Unit of measure: mm)
N00240 (Metric Mode)
N00250 G21
N00260 (Absolute Coordinates)
N00270 G90
N00280 S30000
N00290 G00 Z12.7000 
N00300 G00 X0.0000 Y0.0000 
N00310 M03
N00320 G04 P3.000000
N00330 G00 Z2.5400 
N00340 G00 X-0.7986 Y8.5031 
N00350 G01 Z-0.1778 F254.00 
N00360 G01 X-0.8831 Y8.4186 F1000.00 
N00370 G01 X-0.9825 Y8.3522 
N00380 G01 X-1.0930 Y8.3064 
N00390 G01 X-1.2102 Y8.2831 
N00400 G01 X-14.2267 Y8.2831 
N00410 G01 X-14.2267 Y7.9559 
N00420 G01 X-14.2418 Y7.9196 
N00430 G01 X-14.2696 Y7.8918 
N00440 G01 X-14.3059 Y7.8767 
N00450 G01 X-16.1741 Y7.8767 
N00460 G01 X-16.2104 Y7.8918 
N00470 G01 X-16.2382 Y7.9196 
N00480 G01 X-16.2533 Y7.9559 
N00490 G01 X-16.2533 Y9.8241 
N00500 G01 X-16.2382 Y9.8604 
N00510 G01 X-16.2104 Y9.8882 
N00520 G01 X-16.1741 Y9.9033 
N00530 G01 X-15.8469 Y9.9033 
N00540 G01 X-15.8469 Y11.5851 
N00550 G01 X-16.2757 Y11.5851 
N00560 G01 X-16.3120 Y11.6002 
N00570 G01 X-16.3398 Y11.6280 
N00580 G01 X-16.3549 Y11.6643 
N00590 G01 X-16.3549 Y13.7357 
N00600 G01 X-16.3398 Y13.7720 
N00610 G01 X-16.3120 Y13.7998 
N00620 G01 X-16.2757 Y13.8149 
N00630 G01 X-14.2043 Y13.8149 
N00640 G01 X-14.1680 Y13.7998 
N00650 G01 X-14.1402 Y13.7720 
N00660 G01 X-14.1251 Y13.7357 
N00670 G01 X-14.1251 Y11.6643 
N00680 G01 X-14.1402 Y11.6280 
N00690 G01 X-14.1680 Y11.6002 
N00700 G01 X-14.2043 Y11.5851 
N00710 G01 X-14.6331 Y11.5851 
N00720 G01 X-14.6331 Y9.9033 
N00730 G01 X-14.3059 Y9.9033 
N00740 G01 X-14.2696 Y9.8882 
N00750 G01 X-14.2418 Y9.8604 
N00760 G01 X-14.2267 Y9.8241 
N00770 G01 X-14.2267 Y9.4969 
N00780 G01 X-1.8769 Y9.4969 
N00790 G01 X-1.8769 Y37.4931 
N00800 G01 X-30.5398 Y37.4931 
N00810 G01 X-30.6570 Y37.5164 
N00820 G01 X-30.7675 Y37.5622 
N00830 G01 X-30.8669 Y37.6286 
N00840 G01 X-30.9514 Y37.7131 
N00850 G01 X-31.0178 Y37.8125 
N00860 G01 X-31.0636 Y37.9230 
N00870 G01 X-31.0869 Y38.0402 
N00880 G01 X-31.0869 Y40.7951 
N00890 G01 X-31.5157 Y40.7951 
N00900 G01 X-31.5520 Y40.8102 
N00910 G01 X-31.5798 Y40.8380 
N00920 G01 X-31.5949 Y40.8743 
N00930 G01 X-31.5949 Y42.9457 
N00940 G01 X-31.5798 Y42.9820 
N00950 G01 X-31.5520 Y43.0098 
N00960 G01 X-31.5157 Y43.0249 
N00970 G01 X-29.4443 Y43.0249 
N00980 G01 X-29.4080 Y43.0098 
N00990 G01 X-29.3802 Y42.9820 
N01000 G01 X-29.3651 Y42.9457 
N01010 G01 X-29.3651 Y40.8743 
N01020 G01 X-29.3802 Y40.8380 
N01030 G01 X-29.4080 Y40.8102 
N01040 G01 X-29.4443 Y40.7951 
N01050 G01 X-29.8731 Y40.7951 
N01060 G01 X-29.8731 Y38.7069 
N01070 G01 X-1.2102 Y38.7069 
N01080 G01 X-1.0930 Y38.6836 
N01090 G01 X-0.9825 Y38.6378 
N01100 G01 X-0.8831 Y38.5714 
N01110 G01 X-0.7986 Y38.4869 
N01120 G01 X-0.7322 Y38.3875 
N01130 G01 X-0.6864 Y38.2770 
N01140 G01 X-0.6631 Y38.1598 
N01150 G01 X-0.6631 Y8.8302 
N01160 G01 X-0.6864 Y8.7130 
N01170 G01 X-0.7322 Y8.6025 
N01180 G01 X-0.7986 Y8.5031 
N01190 G00 Z2.5400 
N01200 G00 X-6.5202 Y11.6280 
N01210 G01 Z-0.1778 F254.00 
N01220 G01 X-6.5480 Y11.6002 F1000.00 
N01230 G01 X-6.5843 Y11.5851 
N01240 G01 X-8.6557 Y11.5851 
N01250 G01 X-8.6920 Y11.6002 
N01260 G01 X-8.7198 Y11.6280 
N01270 G01 X-8.7349 Y11.6643 
N01280 G01 X-8.7349 Y13.7357 
N01290 G01 X-8.7198 Y13.7720 
N01300 G01 X-8.6920 Y13.7998 
N01310 G01 X-8.6557 Y13.8149 
N01320 G01 X-6.5843 Y13.8149 
N01330 G01 X-6.5480 Y13.7998 
N01340 G01 X-6.5202 Y13.7720 
N01350 G01 X-6.5051 Y13.7357 
N01360 G01 X-6.5051 Y11.6643 
N01370 G01 X-6.5202 Y11.6280 
N01380 G00 Z2.5400 
N01390 G00 X-9.0602 Y11.6280 
N01400 G01 Z-0.1778 F254.00 
N01410 G01 X-9.0880 Y11.6002 F1000.00 
N01420 G01 X-9.1243 Y11.5851 
N01430 G01 X-11.1957 Y11.5851 
N01440 G01 X-11.2320 Y11.6002 
N01450 G01 X-11.2598 Y11.6280 
N01460 G01 X-11.2749 Y11.6643 
N01470 G01 X-11.2749 Y13.7357 
N01480 G01 X-11.2598 Y13.7720 
N01490 G01 X-11.2320 Y13.7998 
N01500 G01 X-11.1957 Y13.8149 
N01510 G01 X-9.1243 Y13.8149 
N01520 G01 X-9.0880 Y13.7998 
N01530 G01 X-9.0602 Y13.7720 
N01540 G01 X-9.0451 Y13.7357 
N01550 G01 X-9.0451 Y11.6643 
N01560 G01 X-9.0602 Y11.6280 
N01570 G00 Z2.5400 
N01580 G00 X-11.6002 Y11.6280 
N01590 G01 Z-0.1778 F254.00 
N01600 G01 X-11.6280 Y11.6002 F1000.00 
N01610 G01 X-11.6643 Y11.5851 
N01620 G01 X-13.7357 Y11.5851 
N01630 G01 X-13.7720 Y11.6002 
N01640 G01 X-13.7998 Y11.6280 
N01650 G01 X-13.8149 Y11.6643 
N01660 G01 X-13.8149 Y13.7357 
N01670 G01 X-13.7998 Y13.7720 
N01680 G01 X-13.7720 Y13.7998 
N01690 G01 X-13.7357 Y13.8149 
N01700 G01 X-11.6643 Y13.8149 
N01710 G01 X-11.6280 Y13.7998 
N01720 G01 X-11.6002 Y13.7720 
N01730 G01 X-11.5851 Y13.7357 
N01740 G01 X-11.5851 Y11.6643 
N01750 G01 X-11.6002 Y11.6280 
N01760 G00 Z2.5400 
N01770 G00 X-16.6802 Y11.6280 
N01780 G01 Z-0.1778 F254.00 
N01790 G01 X-16.7080 Y11.6002 F1000.00 
N01800 G01 X-16.7443 Y11.5851 
N01810 G01 X-18.8157 Y11.5851 
N01820 G01 X-18.8520 Y11.6002 
N01830 G01 X-18.8798 Y11.6280 
N01840 G01 X-18.8949 Y11.6643 
N01850 G01 X-18.8949 Y13.7357 
N01860 G01 X-18.8798 Y13.7720 
N01870 G01 X-18.8520 Y13.7998 
N01880 G01 X-18.8157 Y13.8149 
N01890 G01 X-16.7443 Y13.8149 
N01900 G01 X-16.7080 Y13.7998 
N01910 G01 X-16.6802 Y13.7720 
N01920 G01 X-16.6651 Y13.7357 
N01930 G01 X-16.6651 Y11.6643 
N01940 G01 X-16.6802 Y11.6280 
N01950 G00 Z2.5400 
N01960 G00 X-19.2202 Y11.6280 
N01970 G01 Z-0.1778 F254.00 
N01980 G01 X-19.2480 Y11.6002 F1000.00 
N01990 G01 X-19.2843 Y11.5851 
N02000 G01 X-21.3557 Y11.5851 
N02010 G01 X-21.3920 Y11.6002 
N02020 G01 X-21.4198 Y11.6280 
N02030 G01 X-21.4349 Y11.6643 
N02040 G01 X-21.4349 Y13.7357 
N02050 G01 X-21.4198 Y13.7720 
N02060 G01 X-21.3920 Y13.7998 
N02070 G01 X-21.3557 Y13.8149 
N02080 G01 X-19.2843 Y13.8149 
N02090 G01 X-19.2480 Y13.7998 
N02100 G01 X-19.2202 Y13.7720 
N02110 G01 X-19.2051 Y13.7357 
N02120 G01 X-19.2051 Y11.6643 
N02130 G01 X-19.2202 Y11.6280 
N02140 G00 Z2.5400 
N02150 G00 X-21.7602 Y11.6280 
N02160 G01 Z-0.1778 F254.00 
N02170 G01 X-21.7880 Y11.6002 F1000.00 
N02180 G01 X-21.8243 Y11.5851 
N02190 G01 X-23.8957 Y11.5851 
N02200 G01 X-23.9320 Y11.6002 
N02210 G01 X-23.9598 Y11.6280 
N02220 G01 X-23.9749 Y11.6643 
N02230 G01 X-23.9749 Y13.7357 
N02240 G01 X-23.9598 Y13.7720 
N02250 G01 X-23.9320 Y13.7998 
N02260 G01 X-23.8957 Y13.8149 
N02270 G01 X-21.8243 Y13.8149 
N02280 G01 X-21.7880 Y13.7998 
N02290 G01 X-21.7602 Y13.7720 
N02300 G01 X-21.7451 Y13.7357 
N02310 G01 X-21.7451 Y11.6643 
N02320 G01 X-21.7602 Y11.6280 
N02330 G00 Z2.5400 
N02340 G00 X-24.3002 Y11.6280 
N02350 G01 Z-0.1778 F254.00 
N02360 G01 X-24.3280 Y11.6002 F1000.00 
N02370 G01 X-24.3643 Y11.5851 
N02380 G01 X-24.7931 Y11.5851 
N02390 G01 X-24.7931 Y3.7502 
N02400 G01 X-24.8164 Y3.6330 
N02410 G01 X-24.8622 Y3.5225 
N02420 G01 X-24.9286 Y3.4231 
N02430 G01 X-25.0131 Y3.3386 
N02440 G01 X-25.1125 Y3.2722 
N02450 G01 X-25.2230 Y3.2264 
N02460 G01 X-25.3402 Y3.2031 
N02470 G01 X-60.9594 Y3.2031 
N02480 G01 X-61.0191 Y3.2030 
N02490 G01 X-61.0780 Y3.2147 
N02500 G01 X-61.1364 Y3.2262 
N02510 G01 X-61.1927 Y3.2495 
N02520 G01 X-61.2469 Y3.2719 
N02530 G01 X-61.2979 Y3.3058 
N02540 G01 X-68.8770 Y8.3586 
N02550 G01 X-68.8879 Y8.3636 
N02560 G01 X-68.9266 Y8.3917 
N02570 G01 X-68.9664 Y8.4182 
N02580 G01 X-68.9749 Y8.4267 
N02590 G01 X-68.9847 Y8.4338 
N02600 G01 X-69.0172 Y8.4689 
N02610 G01 X-69.0510 Y8.5026 
N02620 G01 X-69.0577 Y8.5127 
N02630 G01 X-69.0659 Y8.5215 
N02640 G01 X-69.0909 Y8.5623 
N02650 G01 X-69.1175 Y8.6020 
N02660 G01 X-69.1222 Y8.6131 
N02670 G01 X-69.1285 Y8.6234 
N02680 G01 X-69.1451 Y8.6682 
N02690 G01 X-69.1634 Y8.7124 
N02700 G01 X-69.1658 Y8.7242 
N02710 G01 X-69.1699 Y8.7355 
N02720 G01 X-69.1775 Y8.7828 
N02730 G01 X-69.1868 Y8.8296 
N02740 G01 X-69.1868 Y8.8417 
N02750 G01 X-69.1887 Y8.8536 
N02760 G01 X-69.1869 Y8.9014 
N02770 G01 X-69.1870 Y8.9491 
N02780 G01 X-69.1846 Y8.9610 
N02790 G01 X-67.9177 Y41.9001 
N02800 G01 X-67.9196 Y41.9266 
N02810 G01 X-67.9154 Y41.9597 
N02820 G01 X-67.9142 Y41.9931 
N02830 G01 X-67.9080 Y42.0189 
N02840 G01 X-67.9047 Y42.0452 
N02850 G01 X-67.8941 Y42.0769 
N02860 G01 X-67.8863 Y42.1093 
N02870 G01 X-67.8752 Y42.1334 
N02880 G01 X-66.6278 Y45.8758 
N02890 G01 X-66.6236 Y45.8970 
N02900 G01 X-66.6089 Y45.9324 
N02910 G01 X-66.5969 Y45.9686 
N02920 G01 X-66.5861 Y45.9874 
N02930 G01 X-66.5778 Y46.0075 
N02940 G01 X-66.5566 Y46.0393 
N02950 G01 X-66.5376 Y46.0725 
N02960 G01 X-66.5234 Y46.0889 
N02970 G01 X-66.5114 Y46.1069 
N02980 G01 X-66.4844 Y46.1339 
N02990 G01 X-66.4593 Y46.1628 
N03000 G01 X-66.4422 Y46.1761 
N03010 G01 X-66.4269 Y46.1914 
N03020 G01 X-66.3951 Y46.2126 
N03030 G01 X-66.3649 Y46.2361 
N03040 G01 X-66.3455 Y46.2458 
N03050 G01 X-66.3275 Y46.2578 
N03060 G01 X-66.2921 Y46.2725 
N03070 G01 X-66.2579 Y46.2896 
N03080 G01 X-66.2371 Y46.2953 
N03090 G01 X-66.2170 Y46.3036 
N03100 G01 X-66.1795 Y46.3110 
N03110 G01 X-66.1426 Y46.3211 
N03120 G01 X-66.1210 Y46.3227 
N03130 G01 X-66.0998 Y46.3269 
N03140 G01 X-66.0615 Y46.3269 
N03150 G01 X-66.0234 Y46.3296 
N03160 G01 X-66.0019 Y46.3269 
N03170 G01 X-64.8081 Y46.3269 
N03180 G01 X-64.7866 Y46.3296 
N03190 G01 X-64.7485 Y46.3269 
N03200 G01 X-64.7102 Y46.3269 
N03210 G01 X-64.6890 Y46.3227 
N03220 G01 X-64.6673 Y46.3211 
N03230 G01 X-64.6305 Y46.3110 
N03240 G01 X-64.5930 Y46.3036 
N03250 G01 X-64.5729 Y46.2953 
N03260 G01 X-64.5520 Y46.2896 
N03270 G01 X-64.5179 Y46.2725 
N03280 G01 X-64.4825 Y46.2578 
N03290 G01 X-64.4645 Y46.2458 
N03300 G01 X-61.9779 Y45.0025 
N03310 G01 X-61.9425 Y44.9878 
N03320 G01 X-61.9245 Y44.9758 
N03330 G01 X-61.9051 Y44.9661 
N03340 G01 X-61.8749 Y44.9426 
N03350 G01 X-61.8431 Y44.9214 
N03360 G01 X-61.8278 Y44.9061 
N03370 G01 X-61.8107 Y44.8928 
N03380 G01 X-61.7856 Y44.8639 
N03390 G01 X-61.7586 Y44.8369 
N03400 G01 X-61.7466 Y44.8189 
N03410 G01 X-61.7323 Y44.8025 
N03420 G01 X-61.7134 Y44.7693 
N03430 G01 X-61.6922 Y44.7375 
N03440 G01 X-61.6839 Y44.7174 
N03450 G01 X-61.6731 Y44.6986 
N03460 G01 X-61.6611 Y44.6624 
N03470 G01 X-61.6464 Y44.6270 
N03480 G01 X-61.6422 Y44.6058 
N03490 G01 X-61.6353 Y44.5852 
N03500 G01 X-61.6306 Y44.5473 
N03510 G01 X-61.6231 Y44.5098 
N03520 G01 X-61.6231 Y44.4881 
N03530 G01 X-61.6204 Y44.4666 
N03540 G01 X-61.6231 Y44.4285 
N03550 G01 X-61.6231 Y43.0249 
N03560 G01 X-61.1943 Y43.0249 
N03570 G01 X-61.1580 Y43.0098 
N03580 G01 X-61.1302 Y42.9820 
N03590 G01 X-61.1151 Y42.9457 
N03600 G01 X-61.1151 Y40.8743 
N03610 G01 X-61.1302 Y40.8380 
N03620 G01 X-61.1580 Y40.8102 
N03630 G01 X-61.1943 Y40.7951 
N03640 G01 X-63.2657 Y40.7951 
N03650 G01 X-63.3020 Y40.8102 
N03660 G01 X-63.3298 Y40.8380 
N03670 G01 X-63.3449 Y40.8743 
N03680 G01 X-63.3449 Y42.9457 
N03690 G01 X-63.3298 Y42.9820 
N03700 G01 X-63.3020 Y43.0098 
N03710 G01 X-63.2657 Y43.0249 
N03720 G01 X-62.8369 Y43.0249 
N03730 G01 X-62.8369 Y44.0749 
N03740 G01 X-64.9133 Y45.1131 
N03750 G01 X-65.6026 Y45.1131 
N03760 G01 X-66.7069 Y41.8002 
N03770 G01 X-67.9605 Y9.2064 
N03780 G01 X-60.7762 Y4.4169 
N03790 G01 X-26.0069 Y4.4169 
N03800 G01 X-26.0069 Y11.5851 
N03810 G01 X-26.4357 Y11.5851 
N03820 G01 X-26.4720 Y11.6002 
N03830 G01 X-26.4998 Y11.6280 
N03840 G01 X-26.5149 Y11.6643 
N03850 G01 X-26.5149 Y13.7357 
N03860 G01 X-26.4998 Y13.7720 
N03870 G01 X-26.4720 Y13.7998 
N03880 G01 X-26.4357 Y13.8149 
N03890 G01 X-24.3643 Y13.8149 
N03900 G01 X-24.3280 Y13.7998 
N03910 G01 X-24.3002 Y13.7720 
N03920 G01 X-24.2851 Y13.7357 
N03930 G01 X-24.2851 Y11.6643 
N03940 G01 X-24.3002 Y11.6280 
N03950 G00 Z2.5400 
N03960 G00 X-26.8402 Y11.6280 
N03970 G01 Z-0.1778 F254.00 
N03980 G01 X-26.8680 Y11.6002 F1000.00 
N03990 G01 X-26.9043 Y11.5851 
N04000 G01 X-27.3331 Y11.5851 
N04010 G01 X-27.3331 Y6.2902 
N04020 G01 X-27.3564 Y6.1730 
N04030 G01 X-27.4022 Y6.0625 
N04040 G01 X-27.4686 Y5.9631 
N04050 G01 X-27.5531 Y5.8786 
N04060 G01 X-27.6525 Y5.8122 
N04070 G01 X-27.7630 Y5.7664 
N04080 G01 X-27.8802 Y5.7431 
N04090 G01 X-60.9169 Y5.7431 
N04100 G01 X-60.9333 Y5.7407 
N04110 G01 X-60.9765 Y5.7431 
N04120 G01 X-61.0198 Y5.7431 
N04130 G01 X-61.0361 Y5.7463 
N04140 G01 X-61.0527 Y5.7473 
N04150 G01 X-61.0946 Y5.7580 
N04160 G01 X-61.1370 Y5.7664 
N04170 G01 X-61.1524 Y5.7728 
N04180 G01 X-61.1685 Y5.7769 
N04190 G01 X-61.2075 Y5.7956 
N04200 G01 X-61.2475 Y5.8122 
N04210 G01 X-61.2613 Y5.8214 
N04220 G01 X-61.2763 Y5.8286 
N04230 G01 X-61.3109 Y5.8546 
N04240 G01 X-61.3469 Y5.8786 
N04250 G01 X-61.3586 Y5.8904 
N04260 G01 X-66.4005 Y9.6718 
N04270 G01 X-66.4454 Y9.7044 
N04280 G01 X-66.4484 Y9.7077 
N04290 G01 X-66.4520 Y9.7103 
N04300 G01 X-66.4889 Y9.7515 
N04310 G01 X-66.5265 Y9.7923 
N04320 G01 X-66.5288 Y9.7961 
N04330 G01 X-66.5318 Y9.7994 
N04340 G01 X-66.5600 Y9.8471 
N04350 G01 X-66.5889 Y9.8942 
N04360 G01 X-66.5904 Y9.8984 
N04370 G01 X-66.5927 Y9.9022 
N04380 G01 X-66.6111 Y9.9545 
N04390 G01 X-66.6302 Y10.0064 
N04400 G01 X-66.6309 Y10.0108 
N04410 G01 X-66.6323 Y10.0150 
N04420 G01 X-66.6402 Y10.0698 
N04430 G01 X-66.6488 Y10.1245 
N04440 G01 X-66.6486 Y10.1290 
N04450 G01 X-66.6492 Y10.1333 
N04460 G01 X-66.6462 Y10.1887 
N04470 G01 X-65.4220 Y40.7951 
N04480 G01 X-65.8057 Y40.7951 
N04490 G01 X-65.8420 Y40.8102 
N04500 G01 X-65.8698 Y40.8380 
N04510 G01 X-65.8849 Y40.8743 
N04520 G01 X-65.8849 Y42.9457 
N04530 G01 X-65.8698 Y42.9820 
N04540 G01 X-65.8420 Y43.0098 
N04550 G01 X-65.8057 Y43.0249 
N04560 G01 X-63.7343 Y43.0249 
N04570 G01 X-63.6980 Y43.0098 
N04580 G01 X-63.6702 Y42.9820 
N04590 G01 X-63.6551 Y42.9457 
N04600 G01 X-63.6551 Y40.8743 
N04610 G01 X-63.6702 Y40.8380 
N04620 G01 X-63.6980 Y40.8102 
N04630 G01 X-63.7343 Y40.7951 
N04640 G01 X-64.2072 Y40.7951 
N04650 G01 X-65.4208 Y10.4543 
N04660 G01 X-60.7577 Y6.9569 
N04670 G01 X-28.5469 Y6.9569 
N04680 G01 X-28.5469 Y11.5851 
N04690 G01 X-28.9757 Y11.5851 
N04700 G01 X-29.0120 Y11.6002 
N04710 G01 X-29.0398 Y11.6280 
N04720 G01 X-29.0549 Y11.6643 
N04730 G01 X-29.0549 Y13.7357 
N04740 G01 X-29.0398 Y13.7720 
N04750 G01 X-29.0120 Y13.7998 
N04760 G01 X-28.9757 Y13.8149 
N04770 G01 X-26.9043 Y13.8149 
N04780 G01 X-26.8680 Y13.7998 
N04790 G01 X-26.8402 Y13.7720 
N04800 G01 X-26.8251 Y13.7357 
N04810 G01 X-26.8251 Y11.6643 
N04820 G01 X-26.8402 Y11.6280 
N04830 G00 Z2.5400 
N04840 G00 X-29.3802 Y11.6280 
N04850 G01 Z-0.1778 F254.00 
N04860 G01 X-29.4080 Y11.6002 F1000.00 
N04870 G01 X-29.4443 Y11.5851 
N04880 G01 X-31.5157 Y11.5851 
N04890 G01 X-31.5520 Y11.6002 
N04900 G01 X-31.5798 Y11.6280 
N04910 G01 X-31.5949 Y11.6643 
N04920 G01 X-31.5949 Y13.7357 
N04930 G01 X-31.5798 Y13.7720 
N04940 G01 X-31.5520 Y13.7998 
N04950 G01 X-31.5157 Y13.8149 
N04960 G01 X-29.4443 Y13.8149 
N04970 G01 X-29.4080 Y13.7998 
N04980 G01 X-29.3802 Y13.7720 
N04990 G01 X-29.3651 Y13.7357 
N05000 G01 X-29.3651 Y11.6643 
N05010 G01 X-29.3802 Y11.6280 
N05020 G00 Z2.5400 
N05030 G00 X-29.5096 Y9.8882 
N05040 G01 Z-0.1778 F254.00 
N05050 G01 X-29.4818 Y9.8604 F1000.00 
N05060 G01 X-29.4667 Y9.8241 
N05070 G01 X-29.4667 Y7.9559 
N05080 G01 X-29.4818 Y7.9196 
N05090 G01 X-29.5096 Y7.8918 
N05100 G01 X-29.5459 Y7.8767 
N05110 G01 X-31.4141 Y7.8767 
N05120 G01 X-31.4504 Y7.8918 
N05130 G01 X-31.4782 Y7.9196 
N05140 G01 X-31.4933 Y7.9559 
N05150 G01 X-31.4933 Y8.2831 
N05160 G01 X-35.6198 Y8.2831 
N05170 G01 X-35.7370 Y8.3064 
N05180 G01 X-35.8475 Y8.3522 
N05190 G01 X-35.9469 Y8.4186 
N05200 G01 X-36.0314 Y8.5031 
N05210 G01 X-36.0978 Y8.6025 
N05220 G01 X-36.1436 Y8.7130 
N05230 G01 X-36.1669 Y8.8302 
N05240 G01 X-36.1669 Y11.5851 
N05250 G01 X-36.5957 Y11.5851 
N05260 G01 X-36.6320 Y11.6002 
N05270 G01 X-36.6598 Y11.6280 
N05280 G01 X-36.6749 Y11.6643 
N05290 G01 X-36.6749 Y13.7357 
N05300 G01 X-36.6598 Y13.7720 
N05310 G01 X-36.6320 Y13.7998 
N05320 G01 X-36.5957 Y13.8149 
N05330 G01 X-36.1669 Y13.8149 
N05340 G01 X-36.1669 Y14.6331 
N05350 G01 X-56.0351 Y14.6331 
N05360 G01 X-56.0351 Y12.9343 
N05370 G01 X-56.0502 Y12.8980 
N05380 G01 X-56.0780 Y12.8702 
N05390 G01 X-56.1143 Y12.8551 
N05400 G01 X-58.1857 Y12.8551 
N05410 G01 X-58.2220 Y12.8702 
N05420 G01 X-58.2498 Y12.8980 
N05430 G01 X-58.2649 Y12.9343 
N05440 G01 X-58.2649 Y15.0057 
N05450 G01 X-58.2498 Y15.0420 
N05460 G01 X-58.2220 Y15.0698 
N05470 G01 X-58.1857 Y15.0849 
N05480 G01 X-57.7569 Y15.0849 
N05490 G01 X-57.7569 Y18.4431 
N05500 G01 X-61.0198 Y18.4431 
N05510 G01 X-61.1370 Y18.4664 
N05520 G01 X-61.2475 Y18.5122 
N05530 G01 X-61.3469 Y18.5786 
N05540 G01 X-61.4314 Y18.6631 
N05550 G01 X-61.4978 Y18.7625 
N05560 G01 X-61.5436 Y18.8730 
N05570 G01 X-61.5669 Y18.9902 
N05580 G01 X-61.5669 Y35.5385 
N05590 G01 X-61.5696 Y35.5766 
N05600 G01 X-61.5669 Y35.5981 
N05610 G01 X-61.5669 Y35.6198 
N05620 G01 X-61.5594 Y35.6573 
N05630 G01 X-61.5547 Y35.6952 
N05640 G01 X-61.5478 Y35.7158 
N05650 G01 X-61.5436 Y35.7370 
N05660 G01 X-61.5289 Y35.7724 
N05670 G01 X-61.5168 Y35.8086 
N05680 G01 X-61.5061 Y35.8274 
N05690 G01 X-61.4978 Y35.8475 
N05700 G01 X-61.4766 Y35.8793 
N05710 G01 X-61.4576 Y35.9125 
N05720 G01 X-61.4434 Y35.9289 
N05730 G01 X-61.4314 Y35.9469 
N05740 G01 X-61.4044 Y35.9739 
N05750 G01 X-61.3793 Y36.0028 
N05760 G01 X-61.3622 Y36.0161 
N05770 G01 X-61.3469 Y36.0314 
N05780 G01 X-61.3151 Y36.0526 
N05790 G01 X-61.2849 Y36.0761 
N05800 G01 X-61.2655 Y36.0858 
N05810 G01 X-61.2475 Y36.0978 
N05820 G01 X-61.2121 Y36.1125 
N05830 G01 X-58.9411 Y37.2480 
N05840 G01 X-58.0543 Y40.7951 
N05850 G01 X-58.1857 Y40.7951 
N05860 G01 X-58.2220 Y40.8102 
N05870 G01 X-58.2498 Y40.8380 
N05880 G01 X-58.2649 Y40.8743 
N05890 G01 X-58.2649 Y42.9457 
N05900 G01 X-58.2498 Y42.9820 
N05910 G01 X-58.2220 Y43.0098 
N05920 G01 X-58.1857 Y43.0249 
N05930 G01 X-58.1614 Y43.0249 
N05940 G01 X-58.9889 Y45.5076 
N05950 G01 X-59.0036 Y45.5430 
N05960 G01 X-59.0078 Y45.5642 
N05970 G01 X-59.0147 Y45.5848 
N05980 G01 X-59.0194 Y45.6227 
N05990 G01 X-59.0269 Y45.6602 
N06000 G01 X-59.0269 Y45.6819 
N06010 G01 X-59.0296 Y45.7034 
N06020 G01 X-59.0269 Y45.7415 
N06030 G01 X-59.0269 Y45.7798 
N06040 G01 X-59.0227 Y45.8010 
N06050 G01 X-59.0211 Y45.8226 
N06060 G01 X-59.0110 Y45.8595 
N06070 G01 X-59.0036 Y45.8970 
N06080 G01 X-58.9953 Y45.9171 
N06090 G01 X-58.9896 Y45.9380 
N06100 G01 X-58.9725 Y45.9721 
N06110 G01 X-58.9578 Y46.0075 
N06120 G01 X-58.9458 Y46.0255 
N06130 G01 X-58.9361 Y46.0449 
N06140 G01 X-58.9126 Y46.0751 
N06150 G01 X-58.8914 Y46.1069 
N06160 G01 X-58.8761 Y46.1222 
N06170 G01 X-58.8628 Y46.1393 
N06180 G01 X-58.8339 Y46.1644 
N06190 G01 X-58.8069 Y46.1914 
N06200 G01 X-58.7889 Y46.2034 
N06210 G01 X-58.7725 Y46.2176 
N06220 G01 X-58.7393 Y46.2366 
N06230 G01 X-58.7075 Y46.2578 
N06240 G01 X-58.6874 Y46.2661 
N06250 G01 X-58.6686 Y46.2769 
N06260 G01 X-58.6324 Y46.2889 
N06270 G01 X-58.5970 Y46.3036 
N06280 G01 X-58.5758 Y46.3078 
N06290 G01 X-58.5552 Y46.3147 
N06300 G01 X-58.5173 Y46.3194 
N06310 G01 X-58.4798 Y46.3269 
N06320 G01 X-58.4581 Y46.3269 
N06330 G01 X-58.4366 Y46.3296 
N06340 G01 X-58.3985 Y46.3269 
N06350 G01 X-48.2981 Y46.3269 
N06360 G01 X-48.2766 Y46.3296 
N06370 G01 X-48.2385 Y46.3269 
N06380 G01 X-48.2002 Y46.3269 
N06390 G01 X-48.1790 Y46.3227 
N06400 G01 X-48.1574 Y46.3211 
N06410 G01 X-48.1205 Y46.3110 
N06420 G01 X-48.0830 Y46.3036 
N06430 G01 X-48.0629 Y46.2953 
N06440 G01 X-48.0420 Y46.2896 
N06450 G01 X-48.0079 Y46.2725 
N06460 G01 X-47.9725 Y46.2578 
N06470 G01 X-47.9545 Y46.2458 
N06480 G01 X-47.9351 Y46.2361 
N06490 G01 X-47.9049 Y46.2126 
N06500 G01 X-47.8731 Y46.1914 
N06510 G01 X-47.8578 Y46.1761 
N06520 G01 X-47.8407 Y46.1628 
N06530 G01 X-47.8156 Y46.1339 
N06540 G01 X-47.7886 Y46.1069 
N06550 G01 X-47.7766 Y46.0889 
N06560 G01 X-47.7623 Y46.0725 
N06570 G01 X-47.7434 Y46.0393 
N06580 G01 X-47.7222 Y46.0075 
N06590 G01 X-47.7139 Y45.9874 
N06600 G01 X-47.7031 Y45.9686 
N06610 G01 X-47.6911 Y45.9324 
N06620 G01 X-47.6764 Y45.8970 
N06630 G01 X-47.6722 Y45.8758 
N06640 G01 X-46.7219 Y43.0249 
N06650 G01 X-45.9543 Y43.0249 
N06660 G01 X-45.9180 Y43.0098 
N06670 G01 X-45.8902 Y42.9820 
N06680 G01 X-45.8751 Y42.9457 
N06690 G01 X-45.8751 Y40.8743 
N06700 G01 X-45.8902 Y40.8380 
N06710 G01 X-45.9180 Y40.8102 
N06720 G01 X-45.9543 Y40.7951 
N06730 G01 X-46.7219 Y40.7951 
N06740 G01 X-47.4180 Y38.7069 
N06750 G01 X-37.4369 Y38.7069 
N06760 G01 X-37.4369 Y40.7951 
N06770 G01 X-37.8657 Y40.7951 
N06780 G01 X-37.9020 Y40.8102 
N06790 G01 X-37.9298 Y40.8380 
N06800 G01 X-37.9449 Y40.8743 
N06810 G01 X-37.9449 Y42.9457 
N06820 G01 X-37.9298 Y42.9820 
N06830 G01 X-37.9020 Y43.0098 
N06840 G01 X-37.8657 Y43.0249 
N06850 G01 X-35.7943 Y43.0249 
N06860 G01 X-35.7580 Y43.0098 
N06870 G01 X-35.7302 Y42.9820 
N06880 G01 X-35.7151 Y42.9457 
N06890 G01 X-35.7151 Y40.8743 
N06900 G01 X-35.7302 Y40.8380 
N06910 G01 X-35.7580 Y40.8102 
N06920 G01 X-35.7943 Y40.7951 
N06930 G01 X-36.2231 Y40.7951 
N06940 G01 X-36.2231 Y38.0402 
N06950 G01 X-36.2464 Y37.9230 
N06960 G01 X-36.2922 Y37.8125 
N06970 G01 X-36.3586 Y37.7131 
N06980 G01 X-36.4431 Y37.6286 
N06990 G01 X-36.5425 Y37.5622 
N07000 G01 X-36.6530 Y37.5164 
N07010 G01 X-36.7702 Y37.4931 
N07020 G01 X-48.2385 Y37.4931 
N07030 G01 X-48.2766 Y37.4904 
N07040 G01 X-48.2981 Y37.4931 
N07050 G01 X-48.3198 Y37.4931 
N07060 G01 X-48.3573 Y37.5006 
N07070 G01 X-48.3952 Y37.5053 
N07080 G01 X-48.4158 Y37.5122 
N07090 G01 X-48.4370 Y37.5164 
N07100 G01 X-48.4724 Y37.5311 
N07110 G01 X-48.5086 Y37.5431 
N07120 G01 X-48.5274 Y37.5539 
N07130 G01 X-48.5475 Y37.5622 
N07140 G01 X-48.5793 Y37.5834 
N07150 G01 X-48.6125 Y37.6024 
N07160 G01 X-48.6289 Y37.6166 
N07170 G01 X-48.6469 Y37.6286 
N07180 G01 X-48.6739 Y37.6556 
N07190 G01 X-48.7028 Y37.6807 
N07200 G01 X-48.7161 Y37.6978 
N07210 G01 X-48.7314 Y37.7131 
N07220 G01 X-48.7526 Y37.7449 
N07230 G01 X-48.7761 Y37.7751 
N07240 G01 X-48.7858 Y37.7945 
N07250 G01 X-48.7978 Y37.8125 
N07260 G01 X-48.8125 Y37.8479 
N07270 G01 X-48.8296 Y37.8820 
N07280 G01 X-48.8353 Y37.9029 
N07290 G01 X-48.8436 Y37.9230 
N07300 G01 X-48.8510 Y37.9605 
N07310 G01 X-48.8611 Y37.9973 
N07320 G01 X-48.8627 Y38.0190 
N07330 G01 X-48.8669 Y38.0402 
N07340 G01 X-48.8669 Y38.0785 
N07350 G01 X-48.8696 Y38.1166 
N07360 G01 X-48.8669 Y38.1381 
N07370 G01 X-48.8669 Y38.1598 
N07380 G01 X-48.8594 Y38.1973 
N07390 G01 X-48.8547 Y38.2352 
N07400 G01 X-48.8478 Y38.2558 
N07410 G01 X-48.8436 Y38.2770 
N07420 G01 X-48.8289 Y38.3124 
N07430 G01 X-48.0014 Y40.7951 
N07440 G01 X-48.0257 Y40.7951 
N07450 G01 X-48.0620 Y40.8102 
N07460 G01 X-48.0898 Y40.8380 
N07470 G01 X-48.1049 Y40.8743 
N07480 G01 X-48.1049 Y42.9457 
N07490 G01 X-48.0898 Y42.9820 
N07500 G01 X-48.0620 Y43.0098 
N07510 G01 X-48.0257 Y43.0249 
N07520 G01 X-48.0014 Y43.0249 
N07530 G01 X-48.6974 Y45.1131 
N07540 G01 X-57.5780 Y45.1131 
N07550 G01 X-56.8819 Y43.0249 
N07560 G01 X-56.1143 Y43.0249 
N07570 G01 X-56.0780 Y43.0098 
N07580 G01 X-56.0502 Y42.9820 
N07590 G01 X-56.0351 Y42.9457 
N07600 G01 X-56.0351 Y40.8743 
N07610 G01 X-56.0502 Y40.8380 
N07620 G01 X-56.0780 Y40.8102 
N07630 G01 X-56.1143 Y40.7951 
N07640 G01 X-56.8031 Y40.7951 
N07650 G01 X-57.8224 Y36.7181 
N07660 G01 X-57.8253 Y36.6948 
N07670 G01 X-57.8369 Y36.6602 
N07680 G01 X-57.8457 Y36.6248 
N07690 G01 X-57.8557 Y36.6036 
N07700 G01 X-57.8631 Y36.5814 
N07710 G01 X-57.8812 Y36.5497 
N07720 G01 X-57.8968 Y36.5167 
N07730 G01 X-57.9107 Y36.4979 
N07740 G01 X-57.9224 Y36.4775 
N07750 G01 X-57.9463 Y36.4500 
N07760 G01 X-57.9680 Y36.4207 
N07770 G01 X-57.9853 Y36.4049 
N07780 G01 X-58.0007 Y36.3872 
N07790 G01 X-58.0295 Y36.3648 
N07800 G01 X-58.0565 Y36.3403 
N07810 G01 X-58.0766 Y36.3283 
N07820 G01 X-58.0951 Y36.3139 
N07830 G01 X-58.1277 Y36.2976 
N07840 G01 X-58.1590 Y36.2788 
N07850 G01 X-58.1811 Y36.2709 
N07860 G01 X-60.3531 Y35.1849 
N07870 G01 X-60.3531 Y19.6569 
N07880 G01 X-57.0902 Y19.6569 
N07890 G01 X-56.9730 Y19.6336 
N07900 G01 X-56.8625 Y19.5878 
N07910 G01 X-56.7631 Y19.5214 
N07920 G01 X-56.6786 Y19.4369 
N07930 G01 X-56.6122 Y19.3375 
N07940 G01 X-56.5664 Y19.2270 
N07950 G01 X-56.5431 Y19.1098 
N07960 G01 X-56.5431 Y15.8469 
N07970 G01 X-35.5002 Y15.8469 
N07980 G01 X-35.3830 Y15.8236 
N07990 G01 X-35.2725 Y15.7778 
N08000 G01 X-35.1731 Y15.7114 
N08010 G01 X-35.0886 Y15.6269 
N08020 G01 X-35.0222 Y15.5275 
N08030 G01 X-34.9764 Y15.4170 
N08040 G01 X-34.9531 Y15.2998 
N08050 G01 X-34.9531 Y13.8149 
N08060 G01 X-34.5243 Y13.8149 
N08070 G01 X-34.4880 Y13.7998 
N08080 G01 X-34.4602 Y13.7720 
N08090 G01 X-34.4451 Y13.7357 
N08100 G01 X-34.4451 Y11.6643 
N08110 G01 X-34.4602 Y11.6280 
N08120 G01 X-34.4880 Y11.6002 
N08130 G01 X-34.5243 Y11.5851 
N08140 G01 X-34.9531 Y11.5851 
N08150 G01 X-34.9531 Y9.4969 
N08160 G01 X-31.4933 Y9.4969 
N08170 G01 X-31.4933 Y9.8241 
N08180 G01 X-31.4782 Y9.8604 
N08190 G01 X-31.4504 Y9.8882 
N08200 G01 X-31.4141 Y9.9033 
N08210 G01 X-29.5459 Y9.9033 
N08220 G01 X-29.5096 Y9.8882 
N08230 G00 Z2.5400 
N08240 G00 X-31.9202 Y11.6280 
N08250 G01 Z-0.1778 F254.00 
N08260 G01 X-31.9480 Y11.6002 F1000.00 
N08270 G01 X-31.9843 Y11.5851 
N08280 G01 X-34.0557 Y11.5851 
N08290 G01 X-34.0920 Y11.6002 
N08300 G01 X-34.1198 Y11.6280 
N08310 G01 X-34.1349 Y11.6643 
N08320 G01 X-34.1349 Y13.7357 
N08330 G01 X-34.1198 Y13.7720 
N08340 G01 X-34.0920 Y13.7998 
N08350 G01 X-34.0557 Y13.8149 
N08360 G01 X-31.9843 Y13.8149 
N08370 G01 X-31.9480 Y13.7998 
N08380 G01 X-31.9202 Y13.7720 
N08390 G01 X-31.9051 Y13.7357 
N08400 G01 X-31.9051 Y11.6643 
N08410 G01 X-31.9202 Y11.6280 
N08420 G00 Z2.5400 
N08430 G00 X-37.0002 Y11.6280 
N08440 G01 Z-0.1778 F254.00 
N08450 G01 X-37.0280 Y11.6002 F1000.00 
N08460 G01 X-37.0643 Y11.5851 
N08470 G01 X-39.1357 Y11.5851 
N08480 G01 X-39.1720 Y11.6002 
N08490 G01 X-39.1998 Y11.6280 
N08500 G01 X-39.2149 Y11.6643 
N08510 G01 X-39.2149 Y13.7357 
N08520 G01 X-39.1998 Y13.7720 
N08530 G01 X-39.1720 Y13.7998 
N08540 G01 X-39.1357 Y13.8149 
N08550 G01 X-37.0643 Y13.8149 
N08560 G01 X-37.0280 Y13.7998 
N08570 G01 X-37.0002 Y13.7720 
N08580 G01 X-36.9851 Y13.7357 
N08590 G01 X-36.9851 Y11.6643 
N08600 G01 X-37.0002 Y11.6280 
N08610 G00 Z2.5400 
N08620 G00 X-39.5402 Y11.6280 
N08630 G01 Z-0.1778 F254.00 
N08640 G01 X-39.5680 Y11.6002 F1000.00 
N08650 G01 X-39.6043 Y11.5851 
N08660 G01 X-40.0331 Y11.5851 
N08670 G01 X-40.0331 Y8.8302 
N08680 G01 X-40.0564 Y8.7130 
N08690 G01 X-40.1022 Y8.6025 
N08700 G01 X-40.1686 Y8.5031 
N08710 G01 X-40.2531 Y8.4186 
N08720 G01 X-40.3525 Y8.3522 
N08730 G01 X-40.4630 Y8.3064 
N08740 G01 X-40.5802 Y8.2831 
N08750 G01 X-59.6890 Y8.2831 
N08760 G01 X-59.7491 Y8.2830 
N08770 G01 X-59.8077 Y8.2946 
N08780 G01 X-59.8664 Y8.3062 
N08790 G01 X-59.9223 Y8.3293 
N08800 G01 X-59.9769 Y8.3519 
N08810 G01 X-60.0276 Y8.3856 
N08820 G01 X-63.7872 Y10.8920 
N08830 G01 X-63.8365 Y10.9250 
N08840 G01 X-63.8864 Y10.9582 
N08850 G01 X-63.9287 Y11.0004 
N08860 G01 X-63.9710 Y11.0426 
N08870 G01 X-64.0046 Y11.0928 
N08880 G01 X-64.0375 Y11.1420 
N08890 G01 X-64.0610 Y11.1986 
N08900 G01 X-64.0834 Y11.2524 
N08910 G01 X-64.0954 Y11.3122 
N08920 G01 X-64.1068 Y11.3696 
N08930 G01 X-64.1069 Y11.4294 
N08940 G01 X-64.1070 Y11.4891 
N08950 G01 X-64.1069 Y38.1598 
N08960 G01 X-64.0836 Y38.2770 
N08970 G01 X-64.0378 Y38.3875 
N08980 G01 X-63.9714 Y38.4869 
N08990 G01 X-63.8869 Y38.5714 
N09000 G01 X-63.7875 Y38.6378 
N09010 G01 X-63.6770 Y38.6836 
N09020 G01 X-63.5598 Y38.7069 
N09030 G01 X-61.3974 Y38.7069 
N09040 G01 X-60.7014 Y40.7951 
N09050 G01 X-60.7257 Y40.7951 
N09060 G01 X-60.7620 Y40.8102 
N09070 G01 X-60.7898 Y40.8380 
N09080 G01 X-60.8049 Y40.8743 
N09090 G01 X-60.8049 Y42.9457 
N09100 G01 X-60.7898 Y42.9820 
N09110 G01 X-60.7620 Y43.0098 
N09120 G01 X-60.7257 Y43.0249 
N09130 G01 X-60.5319 Y43.0249 
N09140 G01 X-61.5434 Y48.0827 
N09150 G01 X-61.5552 Y48.1414 
N09160 G01 X-61.5668 Y48.1996 
N09170 G01 X-61.5669 Y48.2594 
N09180 G01 X-61.5670 Y48.3191 
N09190 G01 X-61.5553 Y48.3780 
N09200 G01 X-61.5438 Y48.4364 
N09210 G01 X-61.5205 Y48.4927 
N09220 G01 X-61.4981 Y48.5469 
N09230 G01 X-61.4646 Y48.5972 
N09240 G01 X-61.4318 Y48.6464 
N09250 G01 X-61.3896 Y48.6887 
N09260 G01 X-61.3474 Y48.7310 
N09270 G01 X-61.2972 Y48.7646 
N09280 G01 X-61.2480 Y48.7975 
N09290 G01 X-61.1914 Y48.8210 
N09300 G01 X-61.1376 Y48.8434 
N09310 G01 X-61.0778 Y48.8554 
N09320 G01 X-61.0204 Y48.8668 
N09330 G01 X-60.9606 Y48.8669 
N09340 G01 X-60.9009 Y48.8670 
N09350 G01 X-27.8802 Y48.8669 
N09360 G01 X-27.7630 Y48.8436 
N09370 G01 X-27.6525 Y48.7978 
N09380 G01 X-27.5531 Y48.7314 
N09390 G01 X-27.4686 Y48.6469 
N09400 G01 X-27.4022 Y48.5475 
N09410 G01 X-27.3564 Y48.4370 
N09420 G01 X-27.3331 Y48.3198 
N09430 G01 X-27.3331 Y43.0249 
N09440 G01 X-26.9043 Y43.0249 
N09450 G01 X-26.8680 Y43.0098 
N09460 G01 X-26.8402 Y42.9820 
N09470 G01 X-26.8251 Y42.9457 
N09480 G01 X-26.8251 Y40.8743 
N09490 G01 X-26.8402 Y40.8380 
N09500 G01 X-26.8680 Y40.8102 
N09510 G01 X-26.9043 Y40.7951 
N09520 G01 X-28.9757 Y40.7951 
N09530 G01 X-29.0120 Y40.8102 
N09540 G01 X-29.0398 Y40.8380 
N09550 G01 X-29.0549 Y40.8743 
N09560 G01 X-29.0549 Y42.9457 
N09570 G01 X-29.0398 Y42.9820 
N09580 G01 X-29.0120 Y43.0098 
N09590 G01 X-28.9757 Y43.0249 
N09600 G01 X-28.5469 Y43.0249 
N09610 G01 X-28.5469 Y47.6531 
N09620 G01 X-41.3031 Y47.6531 
N09630 G01 X-41.3031 Y43.0249 
N09640 G01 X-40.8743 Y43.0249 
N09650 G01 X-40.8380 Y43.0098 
N09660 G01 X-40.8102 Y42.9820 
N09670 G01 X-40.7951 Y42.9457 
N09680 G01 X-40.7951 Y40.8743 
N09690 G01 X-40.8102 Y40.8380 
N09700 G01 X-40.8380 Y40.8102 
N09710 G01 X-40.8743 Y40.7951 
N09720 G01 X-42.9457 Y40.7951 
N09730 G01 X-42.9820 Y40.8102 
N09740 G01 X-43.0098 Y40.8380 
N09750 G01 X-43.0249 Y40.8743 
N09760 G01 X-43.0249 Y42.9457 
N09770 G01 X-43.0098 Y42.9820 
N09780 G01 X-42.9820 Y43.0098 
N09790 G01 X-42.9457 Y43.0249 
N09800 G01 X-42.5169 Y43.0249 
N09810 G01 X-42.5169 Y47.6531 
N09820 G01 X-60.2197 Y47.6531 
N09830 G01 X-59.2941 Y43.0249 
N09840 G01 X-58.6543 Y43.0249 
N09850 G01 X-58.6180 Y43.0098 
N09860 G01 X-58.5902 Y42.9820 
N09870 G01 X-58.5751 Y42.9457 
N09880 G01 X-58.5751 Y40.8743 
N09890 G01 X-58.5902 Y40.8380 
N09900 G01 X-58.6180 Y40.8102 
N09910 G01 X-58.6543 Y40.7951 
N09920 G01 X-59.4219 Y40.7951 
N09930 G01 X-60.3722 Y37.9442 
N09940 G01 X-60.3764 Y37.9230 
N09950 G01 X-60.3911 Y37.8876 
N09960 G01 X-60.4031 Y37.8514 
N09970 G01 X-60.4139 Y37.8325 
N09980 G01 X-60.4222 Y37.8125 
N09990 G01 X-60.4434 Y37.7807 
N10000 G01 X-60.4624 Y37.7475 
N10010 G01 X-60.4766 Y37.7311 
N10020 G01 X-60.4886 Y37.7131 
N10030 G01 X-60.5156 Y37.6861 
N10040 G01 X-60.5407 Y37.6572 
N10050 G01 X-60.5578 Y37.6439 
N10060 G01 X-60.5731 Y37.6286 
N10070 G01 X-60.6049 Y37.6073 
N10080 G01 X-60.6351 Y37.5839 
N10090 G01 X-60.6545 Y37.5742 
N10100 G01 X-60.6725 Y37.5622 
N10110 G01 X-60.7079 Y37.5475 
N10120 G01 X-60.7420 Y37.5304 
N10130 G01 X-60.7629 Y37.5247 
N10140 G01 X-60.7830 Y37.5164 
N10150 G01 X-60.8205 Y37.5090 
N10160 G01 X-60.8573 Y37.4989 
N10170 G01 X-60.8790 Y37.4973 
N10180 G01 X-60.9002 Y37.4931 
N10190 G01 X-60.9385 Y37.4931 
N10200 G01 X-60.9766 Y37.4904 
N10210 G01 X-60.9981 Y37.4931 
N10220 G01 X-62.8931 Y37.4931 
N10230 G01 X-62.8931 Y12.0369 
N10240 G01 X-58.2649 Y12.0369 
N10250 G01 X-58.2649 Y12.4657 
N10260 G01 X-58.2498 Y12.5020 
N10270 G01 X-58.2220 Y12.5298 
N10280 G01 X-58.1857 Y12.5449 
N10290 G01 X-56.1143 Y12.5449 
N10300 G01 X-56.0780 Y12.5298 
N10310 G01 X-56.0502 Y12.5020 
N10320 G01 X-56.0351 Y12.4657 
N10330 G01 X-56.0351 Y10.3943 
N10340 G01 X-56.0502 Y10.3580 
N10350 G01 X-56.0780 Y10.3302 
N10360 G01 X-56.1143 Y10.3151 
N10370 G01 X-58.1857 Y10.3151 
N10380 G01 X-58.2220 Y10.3302 
N10390 G01 X-58.2498 Y10.3580 
N10400 G01 X-58.2649 Y10.3943 
N10410 G01 X-58.2649 Y10.8231 
N10420 G01 X-61.4956 Y10.8231 
N10430 G01 X-59.5062 Y9.4969 
N10440 G01 X-41.2469 Y9.4969 
N10450 G01 X-41.2469 Y11.5851 
N10460 G01 X-41.6757 Y11.5851 
N10470 G01 X-41.7120 Y11.6002 
N10480 G01 X-41.7398 Y11.6280 
N10490 G01 X-41.7549 Y11.6643 
N10500 G01 X-41.7549 Y13.7357 
N10510 G01 X-41.7398 Y13.7720 
N10520 G01 X-41.7120 Y13.7998 
N10530 G01 X-41.6757 Y13.8149 
N10540 G01 X-39.6043 Y13.8149 
N10550 G01 X-39.5680 Y13.7998 
N10560 G01 X-39.5402 Y13.7720 
N10570 G01 X-39.5251 Y13.7357 
N10580 G01 X-39.5251 Y11.6643 
N10590 G01 X-39.5402 Y11.6280 
N10600 G00 Z2.5400 
N10610 G00 X-42.0802 Y11.6280 
N10620 G01 Z-0.1778 F254.00 
N10630 G01 X-42.1080 Y11.6002 F1000.00 
N10640 G01 X-42.1443 Y11.5851 
N10650 G01 X-44.2157 Y11.5851 
N10660 G01 X-44.2520 Y11.6002 
N10670 G01 X-44.2798 Y11.6280 
N10680 G01 X-44.2949 Y11.6643 
N10690 G01 X-44.2949 Y13.7357 
N10700 G01 X-44.2798 Y13.7720 
N10710 G01 X-44.2520 Y13.7998 
N10720 G01 X-44.2157 Y13.8149 
N10730 G01 X-42.1443 Y13.8149 
N10740 G01 X-42.1080 Y13.7998 
N10750 G01 X-42.0802 Y13.7720 
N10760 G01 X-42.0651 Y13.7357 
N10770 G01 X-42.0651 Y11.6643 
N10780 G01 X-42.0802 Y11.6280 
N10790 G00 Z2.5400 
N10800 G00 X-42.0427 Y16.6905 
N10810 G01 Z-0.1778 F254.00 
N10820 G01 X-44.1141 Y16.6905 F1000.00 
N10830 G01 X-44.1504 Y16.7056 
N10840 G01 X-44.1782 Y16.7334 
N10850 G01 X-44.1933 Y16.7697 
N10860 G01 X-44.1933 Y18.8411 
N10870 G01 X-44.1782 Y18.8774 
N10880 G01 X-44.1504 Y18.9052 
N10890 G01 X-44.1141 Y18.9203 
N10900 G01 X-42.0427 Y18.9203 
N10910 G01 X-42.0064 Y18.9052 
N10920 G01 X-41.9786 Y18.8774 
N10930 G01 X-41.9635 Y18.8411 
N10940 G01 X-41.9635 Y16.7697 
N10950 G01 X-41.9786 Y16.7334 
N10960 G01 X-42.0064 Y16.7056 
N10970 G01 X-42.0427 Y16.6905 
N10980 G00 Z2.5400 
N10990 G00 X-44.5186 Y16.7334 
N11000 G01 Z-0.1778 F254.00 
N11010 G01 X-44.5464 Y16.7056 F1000.00 
N11020 G01 X-44.5827 Y16.6905 
N11030 G01 X-46.6541 Y16.6905 
N11040 G01 X-46.6904 Y16.7056 
N11050 G01 X-46.7182 Y16.7334 
N11060 G01 X-46.7333 Y16.7697 
N11070 G01 X-46.7333 Y18.8411 
N11080 G01 X-46.7182 Y18.8774 
N11090 G01 X-46.6904 Y18.9052 
N11100 G01 X-46.6541 Y18.9203 
N11110 G01 X-44.5827 Y18.9203 
N11120 G01 X-44.5464 Y18.9052 
N11130 G01 X-44.5186 Y18.8774 
N11140 G01 X-44.5035 Y18.8411 
N11150 G01 X-44.5035 Y16.7697 
N11160 G01 X-44.5186 Y16.7334 
N11170 G00 Z2.5400 
N11180 G00 X-44.5186 Y19.2734 
N11190 G01 Z-0.1778 F254.00 
N11200 G01 X-44.5464 Y19.2456 F1000.00 
N11210 G01 X-44.5827 Y19.2305 
N11220 G01 X-46.6541 Y19.2305 
N11230 G01 X-46.6904 Y19.2456 
N11240 G01 X-46.7182 Y19.2734 
N11250 G01 X-46.7333 Y19.3097 
N11260 G01 X-46.7333 Y21.3811 
N11270 G01 X-46.7182 Y21.4174 
N11280 G01 X-46.6904 Y21.4452 
N11290 G01 X-46.6541 Y21.4603 
N11300 G01 X-44.5827 Y21.4603 
N11310 G01 X-44.5464 Y21.4452 
N11320 G01 X-44.5186 Y21.4174 
N11330 G01 X-44.5035 Y21.3811 
N11340 G01 X-44.5035 Y19.3097 
N11350 G01 X-44.5186 Y19.2734 
N11360 G00 Z2.5400 
N11370 G00 X-44.1782 Y19.2734 
N11380 G01 Z-0.1778 F254.00 
N11390 G01 X-44.1933 Y19.3097 F1000.00 
N11400 G01 X-44.1933 Y21.3811 
N11410 G01 X-44.1782 Y21.4174 
N11420 G01 X-44.1504 Y21.4452 
N11430 G01 X-44.1141 Y21.4603 
N11440 G01 X-42.0427 Y21.4603 
N11450 G01 X-42.0064 Y21.4452 
N11460 G01 X-41.9786 Y21.4174 
N11470 G01 X-41.9635 Y21.3811 
N11480 G01 X-41.9635 Y19.3097 
N11490 G01 X-41.9786 Y19.2734 
N11500 G01 X-42.0064 Y19.2456 
N11510 G01 X-42.0427 Y19.2305 
N11520 G01 X-44.1141 Y19.2305 
N11530 G01 X-44.1504 Y19.2456 
N11540 G01 X-44.1782 Y19.2734 
N11550 G00 Z2.5400 
N11560 G00 X-44.1504 Y21.7856 
N11570 G01 Z-0.1778 F254.00 
N11580 G01 X-44.1782 Y21.8134 F1000.00 
N11590 G01 X-44.1933 Y21.8497 
N11600 G01 X-44.1933 Y23.9211 
N11610 G01 X-44.1782 Y23.9574 
N11620 G01 X-44.1504 Y23.9852 
N11630 G01 X-44.1141 Y24.0003 
N11640 G01 X-42.0427 Y24.0003 
N11650 G01 X-42.0064 Y23.9852 
N11660 G01 X-41.9786 Y23.9574 
N11670 G01 X-41.9635 Y23.9211 
N11680 G01 X-41.9635 Y21.8497 
N11690 G01 X-41.9786 Y21.8134 
N11700 G01 X-42.0064 Y21.7856 
N11710 G01 X-42.0427 Y21.7705 
N11720 G01 X-44.1141 Y21.7705 
N11730 G01 X-44.1504 Y21.7856 
N11740 G00 Z2.5400 
N11750 G00 X-44.5186 Y21.8134 
N11760 G01 Z-0.1778 F254.00 
N11770 G01 X-44.5464 Y21.7856 F1000.00 
N11780 G01 X-44.5827 Y21.7705 
N11790 G01 X-46.6541 Y21.7705 
N11800 G01 X-46.6904 Y21.7856 
N11810 G01 X-46.7182 Y21.8134 
N11820 G01 X-46.7333 Y21.8497 
N11830 G01 X-46.7333 Y23.9211 
N11840 G01 X-46.7182 Y23.9574 
N11850 G01 X-46.6904 Y23.9852 
N11860 G01 X-46.6541 Y24.0003 
N11870 G01 X-44.5827 Y24.0003 
N11880 G01 X-44.5464 Y23.9852 
N11890 G01 X-44.5186 Y23.9574 
N11900 G01 X-44.5035 Y23.9211 
N11910 G01 X-44.5035 Y21.8497 
N11920 G01 X-44.5186 Y21.8134 
N11930 G00 Z2.5400 
N11940 G00 X-44.2520 Y26.8402 
N11950 G01 Z-0.1778 F254.00 
N11960 G01 X-44.2798 Y26.8680 F1000.00 
N11970 G01 X-44.2949 Y26.9043 
N11980 G01 X-44.2949 Y28.9757 
N11990 G01 X-44.2798 Y29.0120 
N12000 G01 X-44.2520 Y29.0398 
N12010 G01 X-44.2157 Y29.0549 
N12020 G01 X-42.1443 Y29.0549 
N12030 G01 X-42.1080 Y29.0398 
N12040 G01 X-42.0802 Y29.0120 
N12050 G01 X-42.0651 Y28.9757 
N12060 G01 X-42.0651 Y26.9043 
N12070 G01 X-42.0802 Y26.8680 
N12080 G01 X-42.1080 Y26.8402 
N12090 G01 X-42.1443 Y26.8251 
N12100 G01 X-44.2157 Y26.8251 
N12110 G01 X-44.2520 Y26.8402 
N12120 G00 Z2.5400 
N12130 G00 X-41.7120 Y26.8402 
N12140 G01 Z-0.1778 F254.00 
N12150 G01 X-41.7398 Y26.8680 F1000.00 
N12160 G01 X-41.7549 Y26.9043 
N12170 G01 X-41.7549 Y28.9757 
N12180 G01 X-41.7398 Y29.0120 
N12190 G01 X-41.7120 Y29.0398 
N12200 G01 X-41.6757 Y29.0549 
N12210 G01 X-39.6043 Y29.0549 
N12220 G01 X-39.5680 Y29.0398 
N12230 G01 X-39.5402 Y29.0120 
N12240 G01 X-39.5251 Y28.9757 
N12250 G01 X-39.5251 Y26.9043 
N12260 G01 X-39.5402 Y26.8680 
N12270 G01 X-39.5680 Y26.8402 
N12280 G01 X-39.6043 Y26.8251 
N12290 G01 X-41.6757 Y26.8251 
N12300 G01 X-41.7120 Y26.8402 
N12310 G00 Z2.5400 
N12320 G00 X-39.1720 Y26.8402 
N12330 G01 Z-0.1778 F254.00 
N12340 G01 X-39.1998 Y26.8680 F1000.00 
N12350 G01 X-39.2149 Y26.9043 
N12360 G01 X-39.2149 Y28.9757 
N12370 G01 X-39.1998 Y29.0120 
N12380 G01 X-39.1720 Y29.0398 
N12390 G01 X-39.1357 Y29.0549 
N12400 G01 X-37.0643 Y29.0549 
N12410 G01 X-37.0280 Y29.0398 
N12420 G01 X-37.0002 Y29.0120 
N12430 G01 X-36.9851 Y28.9757 
N12440 G01 X-36.9851 Y26.9043 
N12450 G01 X-37.0002 Y26.8680 
N12460 G01 X-37.0280 Y26.8402 
N12470 G01 X-37.0643 Y26.8251 
N12480 G01 X-39.1357 Y26.8251 
N12490 G01 X-39.1720 Y26.8402 
N12500 G00 Z2.5400 
N12510 G00 X-36.6320 Y26.8402 
N12520 G01 Z-0.1778 F254.00 
N12530 G01 X-36.6598 Y26.8680 F1000.00 
N12540 G01 X-36.6749 Y26.9043 
N12550 G01 X-36.6749 Y28.9757 
N12560 G01 X-36.6598 Y29.0120 
N12570 G01 X-36.6320 Y29.0398 
N12580 G01 X-36.5957 Y29.0549 
N12590 G01 X-34.5243 Y29.0549 
N12600 G01 X-34.4880 Y29.0398 
N12610 G01 X-34.4602 Y29.0120 
N12620 G01 X-34.4451 Y28.9757 
N12630 G01 X-34.4451 Y26.9043 
N12640 G01 X-34.4602 Y26.8680 
N12650 G01 X-34.4880 Y26.8402 
N12660 G01 X-34.5243 Y26.8251 
N12670 G01 X-34.9531 Y26.8251 
N12680 G01 X-34.9531 Y25.3402 
N12690 G01 X-34.9764 Y25.2230 
N12700 G01 X-35.0222 Y25.1125 
N12710 G01 X-35.0886 Y25.0131 
N12720 G01 X-35.1731 Y24.9286 
N12730 G01 X-35.2725 Y24.8622 
N12740 G01 X-35.3830 Y24.8164 
N12750 G01 X-35.5002 Y24.7931 
N12760 G01 X-58.4798 Y24.7931 
N12770 G01 X-58.5970 Y24.8164 
N12780 G01 X-58.7075 Y24.8622 
N12790 G01 X-58.8069 Y24.9286 
N12800 G01 X-58.8914 Y25.0131 
N12810 G01 X-58.9578 Y25.1125 
N12820 G01 X-59.0036 Y25.2230 
N12830 G01 X-59.0269 Y25.3402 
N12840 G01 X-59.0269 Y29.4667 
N12850 G01 X-59.3541 Y29.4667 
N12860 G01 X-59.3904 Y29.4818 
N12870 G01 X-59.4182 Y29.5096 
N12880 G01 X-59.4333 Y29.5459 
N12890 G01 X-59.4333 Y31.4141 
N12900 G01 X-59.4182 Y31.4504 
N12910 G01 X-59.3904 Y31.4782 
N12920 G01 X-59.3541 Y31.4933 
N12930 G01 X-59.0269 Y31.4933 
N12940 G01 X-59.0269 Y33.2767 
N12950 G01 X-59.3541 Y33.2767 
N12960 G01 X-59.3904 Y33.2918 
N12970 G01 X-59.4182 Y33.3196 
N12980 G01 X-59.4333 Y33.3559 
N12990 G01 X-59.4333 Y35.2241 
N13000 G01 X-59.4182 Y35.2604 
N13010 G01 X-59.3904 Y35.2882 
N13020 G01 X-59.3541 Y35.3033 
N13030 G01 X-57.4859 Y35.3033 
N13040 G01 X-57.4496 Y35.2882 
N13050 G01 X-57.4218 Y35.2604 
N13060 G01 X-57.4067 Y35.2241 
N13070 G01 X-57.4067 Y33.3559 
N13080 G01 X-57.4218 Y33.3196 
N13090 G01 X-57.4496 Y33.2918 
N13100 G01 X-57.4859 Y33.2767 
N13110 G01 X-57.8131 Y33.2767 
N13120 G01 X-57.8131 Y31.4933 
N13130 G01 X-57.4859 Y31.4933 
N13140 G01 X-57.4496 Y31.4782 
N13150 G01 X-57.4218 Y31.4504 
N13160 G01 X-57.4067 Y31.4141 
N13170 G01 X-57.4067 Y29.5459 
N13180 G01 X-57.4218 Y29.5096 
N13190 G01 X-57.4496 Y29.4818 
N13200 G01 X-57.4859 Y29.4667 
N13210 G01 X-57.8131 Y29.4667 
N13220 G01 X-57.8131 Y26.0069 
N13230 G01 X-36.1669 Y26.0069 
N13240 G01 X-36.1669 Y26.8251 
N13250 G01 X-36.5957 Y26.8251 
N13260 G01 X-36.6320 Y26.8402 
N13270 G00 Z2.5400 
N13280 G00 X-34.0920 Y26.8402 
N13290 G01 Z-0.1778 F254.00 
N13300 G01 X-34.1198 Y26.8680 F1000.00 
N13310 G01 X-34.1349 Y26.9043 
N13320 G01 X-34.1349 Y28.9757 
N13330 G01 X-34.1198 Y29.0120 
N13340 G01 X-34.0920 Y29.0398 
N13350 G01 X-34.0557 Y29.0549 
N13360 G01 X-31.9843 Y29.0549 
N13370 G01 X-31.9480 Y29.0398 
N13380 G01 X-31.9202 Y29.0120 
N13390 G01 X-31.9051 Y28.9757 
N13400 G01 X-31.9051 Y26.9043 
N13410 G01 X-31.9202 Y26.8680 
N13420 G01 X-31.9480 Y26.8402 
N13430 G01 X-31.9843 Y26.8251 
N13440 G01 X-34.0557 Y26.8251 
N13450 G01 X-34.0920 Y26.8402 
N13460 G00 Z2.5400 
N13470 G00 X-31.5520 Y26.8402 
N13480 G01 Z-0.1778 F254.00 
N13490 G01 X-31.5798 Y26.8680 F1000.00 
N13500 G01 X-31.5949 Y26.9043 
N13510 G01 X-31.5949 Y28.9757 
N13520 G01 X-31.5798 Y29.0120 
N13530 G01 X-31.5520 Y29.0398 
N13540 G01 X-31.5157 Y29.0549 
N13550 G01 X-29.4443 Y29.0549 
N13560 G01 X-29.4080 Y29.0398 
N13570 G01 X-29.3802 Y29.0120 
N13580 G01 X-29.3651 Y28.9757 
N13590 G01 X-29.3651 Y26.9043 
N13600 G01 X-29.3802 Y26.8680 
N13610 G01 X-29.4080 Y26.8402 
N13620 G01 X-29.4443 Y26.8251 
N13630 G01 X-31.5157 Y26.8251 
N13640 G01 X-31.5520 Y26.8402 
N13650 G00 Z2.5400 
N13660 G00 X-29.0120 Y26.8402 
N13670 G01 Z-0.1778 F254.00 
N13680 G01 X-29.0398 Y26.8680 F1000.00 
N13690 G01 X-29.0549 Y26.9043 
N13700 G01 X-29.0549 Y28.9757 
N13710 G01 X-29.0398 Y29.0120 
N13720 G01 X-29.0120 Y29.0398 
N13730 G01 X-28.9757 Y29.0549 
N13740 G01 X-26.9043 Y29.0549 
N13750 G01 X-26.8680 Y29.0398 
N13760 G01 X-26.8402 Y29.0120 
N13770 G01 X-26.8251 Y28.9757 
N13780 G01 X-26.8251 Y26.9043 
N13790 G01 X-26.8402 Y26.8680 
N13800 G01 X-26.8680 Y26.8402 
N13810 G01 X-26.9043 Y26.8251 
N13820 G01 X-28.9757 Y26.8251 
N13830 G01 X-29.0120 Y26.8402 
N13840 G00 Z2.5400 
N13850 G00 X-26.4720 Y26.8402 
N13860 G01 Z-0.1778 F254.00 
N13870 G01 X-26.4998 Y26.8680 F1000.00 
N13880 G01 X-26.5149 Y26.9043 
N13890 G01 X-26.5149 Y28.9757 
N13900 G01 X-26.4998 Y29.0120 
N13910 G01 X-26.4720 Y29.0398 
N13920 G01 X-26.4357 Y29.0549 
N13930 G01 X-24.3643 Y29.0549 
N13940 G01 X-24.3280 Y29.0398 
N13950 G01 X-24.3002 Y29.0120 
N13960 G01 X-24.2851 Y28.9757 
N13970 G01 X-24.2851 Y26.9043 
N13980 G01 X-24.3002 Y26.8680 
N13990 G01 X-24.3280 Y26.8402 
N14000 G01 X-24.3643 Y26.8251 
N14010 G01 X-26.4357 Y26.8251 
N14020 G01 X-26.4720 Y26.8402 
N14030 G00 Z2.5400 
N14040 G00 X-23.9320 Y26.8402 
N14050 G01 Z-0.1778 F254.00 
N14060 G01 X-23.9598 Y26.8680 F1000.00 
N14070 G01 X-23.9749 Y26.9043 
N14080 G01 X-23.9749 Y28.9757 
N14090 G01 X-23.9598 Y29.0120 
N14100 G01 X-23.9320 Y29.0398 
N14110 G01 X-23.8957 Y29.0549 
N14120 G01 X-21.8243 Y29.0549 
N14130 G01 X-21.7880 Y29.0398 
N14140 G01 X-21.7602 Y29.0120 
N14150 G01 X-21.7451 Y28.9757 
N14160 G01 X-21.7451 Y26.9043 
N14170 G01 X-21.7602 Y26.8680 
N14180 G01 X-21.7880 Y26.8402 
N14190 G01 X-21.8243 Y26.8251 
N14200 G01 X-23.8957 Y26.8251 
N14210 G01 X-23.9320 Y26.8402 
N14220 G00 Z2.5400 
N14230 G00 X-21.3920 Y26.8402 
N14240 G01 Z-0.1778 F254.00 
N14250 G01 X-21.4198 Y26.8680 F1000.00 
N14260 G01 X-21.4349 Y26.9043 
N14270 G01 X-21.4349 Y28.9757 
N14280 G01 X-21.4198 Y29.0120 
N14290 G01 X-21.3920 Y29.0398 
N14300 G01 X-21.3557 Y29.0549 
N14310 G01 X-19.2843 Y29.0549 
N14320 G01 X-19.2480 Y29.0398 
N14330 G01 X-19.2202 Y29.0120 
N14340 G01 X-19.2051 Y28.9757 
N14350 G01 X-19.2051 Y26.9043 
N14360 G01 X-19.2202 Y26.8680 
N14370 G01 X-19.2480 Y26.8402 
N14380 G01 X-19.2843 Y26.8251 
N14390 G01 X-21.3557 Y26.8251 
N14400 G01 X-21.3920 Y26.8402 
N14410 G00 Z2.5400 
N14420 G00 X-18.8520 Y26.8402 
N14430 G01 Z-0.1778 F254.00 
N14440 G01 X-18.8798 Y26.8680 F1000.00 
N14450 G01 X-18.8949 Y26.9043 
N14460 G01 X-18.8949 Y28.9757 
N14470 G01 X-18.8798 Y29.0120 
N14480 G01 X-18.8520 Y29.0398 
N14490 G01 X-18.8157 Y29.0549 
N14500 G01 X-16.7443 Y29.0549 
N14510 G01 X-16.7080 Y29.0398 
N14520 G01 X-16.6802 Y29.0120 
N14530 G01 X-16.6651 Y28.9757 
N14540 G01 X-16.6651 Y26.9043 
N14550 G01 X-16.6802 Y26.8680 
N14560 G01 X-16.7080 Y26.8402 
N14570 G01 X-16.7443 Y26.8251 
N14580 G01 X-18.8157 Y26.8251 
N14590 G01 X-18.8520 Y26.8402 
N14600 G00 Z2.5400 
N14610 G00 X-16.3120 Y26.8402 
N14620 G01 Z-0.1778 F254.00 
N14630 G01 X-16.3398 Y26.8680 F1000.00 
N14640 G01 X-16.3549 Y26.9043 
N14650 G01 X-16.3549 Y28.9757 
N14660 G01 X-16.3398 Y29.0120 
N14670 G01 X-16.3120 Y29.0398 
N14680 G01 X-16.2757 Y29.0549 
N14690 G01 X-14.2043 Y29.0549 
N14700 G01 X-14.1680 Y29.0398 
N14710 G01 X-14.1402 Y29.0120 
N14720 G01 X-14.1251 Y28.9757 
N14730 G01 X-14.1251 Y26.9043 
N14740 G01 X-14.1402 Y26.8680 
N14750 G01 X-14.1680 Y26.8402 
N14760 G01 X-14.2043 Y26.8251 
N14770 G01 X-16.2757 Y26.8251 
N14780 G01 X-16.3120 Y26.8402 
N14790 G00 Z2.5400 
N14800 G00 X-13.7720 Y26.8402 
N14810 G01 Z-0.1778 F254.00 
N14820 G01 X-13.7998 Y26.8680 F1000.00 
N14830 G01 X-13.8149 Y26.9043 
N14840 G01 X-13.8149 Y28.9757 
N14850 G01 X-13.7998 Y29.0120 
N14860 G01 X-13.7720 Y29.0398 
N14870 G01 X-13.7357 Y29.0549 
N14880 G01 X-11.6643 Y29.0549 
N14890 G01 X-11.6280 Y29.0398 
N14900 G01 X-11.6002 Y29.0120 
N14910 G01 X-11.5851 Y28.9757 
N14920 G01 X-11.5851 Y26.9043 
N14930 G01 X-11.6002 Y26.8680 
N14940 G01 X-11.6280 Y26.8402 
N14950 G01 X-11.6643 Y26.8251 
N14960 G01 X-12.0931 Y26.8251 
N14970 G01 X-12.0931 Y26.0069 
N14980 G01 X-4.4169 Y26.0069 
N14990 G01 X-4.4169 Y34.9531 
N15000 G01 X-34.3498 Y34.9531 
N15010 G01 X-34.4670 Y34.9764 
N15020 G01 X-34.5775 Y35.0222 
N15030 G01 X-34.6769 Y35.0886 
N15040 G01 X-34.7614 Y35.1731 
N15050 G01 X-34.8278 Y35.2725 
N15060 G01 X-34.8736 Y35.3830 
N15070 G01 X-34.8969 Y35.5002 
N15080 G01 X-34.8969 Y45.1131 
N15090 G01 X-38.7631 Y45.1131 
N15100 G01 X-38.7631 Y43.0249 
N15110 G01 X-38.3343 Y43.0249 
N15120 G01 X-38.2980 Y43.0098 
N15130 G01 X-38.2702 Y42.9820 
N15140 G01 X-38.2551 Y42.9457 
N15150 G01 X-38.2551 Y40.8743 
N15160 G01 X-38.2702 Y40.8380 
N15170 G01 X-38.2980 Y40.8102 
N15180 G01 X-38.3343 Y40.7951 
N15190 G01 X-40.4057 Y40.7951 
N15200 G01 X-40.4420 Y40.8102 
N15210 G01 X-40.4698 Y40.8380 
N15220 G01 X-40.4849 Y40.8743 
N15230 G01 X-40.4849 Y42.9457 
N15240 G01 X-40.4698 Y42.9820 
N15250 G01 X-40.4420 Y43.0098 
N15260 G01 X-40.4057 Y43.0249 
N15270 G01 X-39.9769 Y43.0249 
N15280 G01 X-39.9769 Y45.7798 
N15290 G01 X-39.9536 Y45.8970 
N15300 G01 X-39.9078 Y46.0075 
N15310 G01 X-39.8414 Y46.1069 
N15320 G01 X-39.7569 Y46.1914 
N15330 G01 X-39.6575 Y46.2578 
N15340 G01 X-39.5470 Y46.3036 
N15350 G01 X-39.4298 Y46.3269 
N15360 G01 X-34.2302 Y46.3269 
N15370 G01 X-34.1130 Y46.3036 
N15380 G01 X-34.0025 Y46.2578 
N15390 G01 X-33.9031 Y46.1914 
N15400 G01 X-33.8186 Y46.1069 
N15410 G01 X-33.7522 Y46.0075 
N15420 G01 X-33.7064 Y45.8970 
N15430 G01 X-33.6831 Y45.7798 
N15440 G01 X-33.6831 Y36.1669 
N15450 G01 X-3.7502 Y36.1669 
N15460 G01 X-3.6330 Y36.1436 
N15470 G01 X-3.5225 Y36.0978 
N15480 G01 X-3.4231 Y36.0314 
N15490 G01 X-3.3386 Y35.9469 
N15500 G01 X-3.2722 Y35.8475 
N15510 G01 X-3.2264 Y35.7370 
N15520 G01 X-3.2031 Y35.6198 
N15530 G01 X-3.2031 Y25.3402 
N15540 G01 X-3.2264 Y25.2230 
N15550 G01 X-3.2722 Y25.1125 
N15560 G01 X-3.3386 Y25.0131 
N15570 G01 X-3.4231 Y24.9286 
N15580 G01 X-3.5225 Y24.8622 
N15590 G01 X-3.6330 Y24.8164 
N15600 G01 X-3.7502 Y24.7931 
N15610 G01 X-12.7598 Y24.7931 
N15620 G01 X-12.8770 Y24.8164 
N15630 G01 X-12.9875 Y24.8622 
N15640 G01 X-13.0869 Y24.9286 
N15650 G01 X-13.1714 Y25.0131 
N15660 G01 X-13.2378 Y25.1125 
N15670 G01 X-13.2836 Y25.2230 
N15680 G01 X-13.3069 Y25.3402 
N15690 G01 X-13.3069 Y26.8251 
N15700 G01 X-13.7357 Y26.8251 
N15710 G01 X-13.7720 Y26.8402 
N15720 G00 Z2.5400 
N15730 G00 X-11.2320 Y26.8402 
N15740 G01 Z-0.1778 F254.00 
N15750 G01 X-11.2598 Y26.8680 F1000.00 
N15760 G01 X-11.2749 Y26.9043 
N15770 G01 X-11.2749 Y28.9757 
N15780 G01 X-11.2598 Y29.0120 
N15790 G01 X-11.2320 Y29.0398 
N15800 G01 X-11.1957 Y29.0549 
N15810 G01 X-10.7669 Y29.0549 
N15820 G01 X-10.7669 Y29.8731 
N15830 G01 X-47.2467 Y29.8731 
N15840 G01 X-47.2467 Y29.5459 
N15850 G01 X-47.2618 Y29.5096 
N15860 G01 X-47.2896 Y29.4818 
N15870 G01 X-47.3259 Y29.4667 
N15880 G01 X-49.1941 Y29.4667 
N15890 G01 X-49.2304 Y29.4818 
N15900 G01 X-49.2582 Y29.5096 
N15910 G01 X-49.2733 Y29.5459 
N15920 G01 X-49.2733 Y29.8731 
N15930 G01 X-53.3140 Y29.8731 
N15940 G01 X-53.3476 Y29.8702 
N15950 G01 X-53.3736 Y29.8731 
N15960 G01 X-53.3998 Y29.8731 
N15970 G01 X-53.4329 Y29.8797 
N15980 G01 X-53.4664 Y29.8834 
N15990 G01 X-53.4914 Y29.8913 
N16000 G01 X-53.5170 Y29.8964 
N16010 G01 X-53.5482 Y29.9093 
N16020 G01 X-53.5804 Y29.9195 
N16030 G01 X-53.6033 Y29.9322 
N16040 G01 X-53.6275 Y29.9422 
N16050 G01 X-53.6555 Y29.9609 
N16060 G01 X-53.6851 Y29.9772 
N16070 G01 X-53.7051 Y29.9941 
N16080 G01 X-53.7269 Y30.0086 
N16090 G01 X-53.7507 Y30.0325 
N16100 G01 X-53.7766 Y30.0542 
N16110 G01 X-53.7929 Y30.0746 
N16120 G01 X-53.8114 Y30.0931 
N16130 G01 X-53.8302 Y30.1212 
N16140 G01 X-53.8512 Y30.1475 
N16150 G01 X-53.8633 Y30.1708 
N16160 G01 X-53.8778 Y30.1925 
N16170 G01 X-53.8907 Y30.2237 
N16180 G01 X-53.9063 Y30.2537 
N16190 G01 X-53.9136 Y30.2788 
N16200 G01 X-53.9236 Y30.3030 
N16210 G01 X-53.9302 Y30.3361 
N16220 G01 X-53.9396 Y30.3685 
N16230 G01 X-53.9418 Y30.3946 
N16240 G01 X-53.9469 Y30.4202 
N16250 G01 X-53.9469 Y30.4540 
N16260 G01 X-53.9498 Y30.4876 
N16270 G01 X-53.9469 Y30.5136 
N16280 G01 X-53.9469 Y30.5398 
N16290 G01 X-53.9403 Y30.5729 
N16300 G01 X-52.8045 Y40.7951 
N16310 G01 X-53.1057 Y40.7951 
N16320 G01 X-53.1420 Y40.8102 
N16330 G01 X-53.1698 Y40.8380 
N16340 G01 X-53.1849 Y40.8743 
N16350 G01 X-53.1849 Y42.9457 
N16360 G01 X-53.1698 Y42.9820 
N16370 G01 X-53.1420 Y43.0098 
N16380 G01 X-53.1057 Y43.0249 
N16390 G01 X-51.0343 Y43.0249 
N16400 G01 X-50.9980 Y43.0098 
N16410 G01 X-50.9702 Y42.9820 
N16420 G01 X-50.9551 Y42.9457 
N16430 G01 X-50.9551 Y40.8743 
N16440 G01 X-50.9702 Y40.8380 
N16450 G01 X-50.9980 Y40.8102 
N16460 G01 X-51.0343 Y40.7951 
N16470 G01 X-51.5832 Y40.7951 
N16480 G01 X-52.6619 Y31.0869 
N16490 G01 X-49.2733 Y31.0869 
N16500 G01 X-49.2733 Y31.4141 
N16510 G01 X-49.2582 Y31.4504 
N16520 G01 X-49.2304 Y31.4782 
N16530 G01 X-49.1941 Y31.4933 
N16540 G01 X-47.3259 Y31.4933 
N16550 G01 X-47.2896 Y31.4782 
N16560 G01 X-47.2618 Y31.4504 
N16570 G01 X-47.2467 Y31.4141 
N16580 G01 X-47.2467 Y31.0869 
N16590 G01 X-10.1002 Y31.0869 
N16600 G01 X-9.9830 Y31.0636 
N16610 G01 X-9.8725 Y31.0178 
N16620 G01 X-9.7731 Y30.9514 
N16630 G01 X-9.6886 Y30.8669 
N16640 G01 X-9.6222 Y30.7675 
N16650 G01 X-9.5764 Y30.6570 
N16660 G01 X-9.5531 Y30.5398 
N16670 G01 X-9.5531 Y29.0549 
N16680 G01 X-9.1243 Y29.0549 
N16690 G01 X-9.0880 Y29.0398 
N16700 G01 X-9.0602 Y29.0120 
N16710 G01 X-9.0451 Y28.9757 
N16720 G01 X-9.0451 Y26.9043 
N16730 G01 X-9.0602 Y26.8680 
N16740 G01 X-9.0880 Y26.8402 
N16750 G01 X-9.1243 Y26.8251 
N16760 G01 X-11.1957 Y26.8251 
N16770 G01 X-11.2320 Y26.8402 
N16780 G00 Z2.5400 
N16790 G00 X-8.6920 Y26.8402 
N16800 G01 Z-0.1778 F254.00 
N16810 G01 X-8.7198 Y26.8680 F1000.00 
N16820 G01 X-8.7349 Y26.9043 
N16830 G01 X-8.7349 Y28.9757 
N16840 G01 X-8.7198 Y29.0120 
N16850 G01 X-8.6920 Y29.0398 
N16860 G01 X-8.6557 Y29.0549 
N16870 G01 X-8.2269 Y29.0549 
N16880 G01 X-8.2269 Y32.4131 
N16890 G01 X-43.2398 Y32.4131 
N16900 G01 X-43.3570 Y32.4364 
N16910 G01 X-43.4675 Y32.4822 
N16920 G01 X-43.5669 Y32.5486 
N16930 G01 X-43.6514 Y32.6331 
N16940 G01 X-43.7178 Y32.7325 
N16950 G01 X-43.7636 Y32.8430 
N16960 G01 X-43.7869 Y32.9602 
N16970 G01 X-43.7869 Y33.6831 
N16980 G01 X-47.2467 Y33.6831 
N16990 G01 X-47.2467 Y33.3559 
N17000 G01 X-47.2618 Y33.3196 
N17010 G01 X-47.2896 Y33.2918 
N17020 G01 X-47.3259 Y33.2767 
N17030 G01 X-49.1941 Y33.2767 
N17040 G01 X-49.2304 Y33.2918 
N17050 G01 X-49.2582 Y33.3196 
N17060 G01 X-49.2733 Y33.3559 
N17070 G01 X-49.2733 Y34.4450 
N17080 G01 X-51.1974 Y36.3691 
N17090 G01 X-51.2093 Y36.3780 
N17100 G01 X-51.2396 Y36.4113 
N17110 G01 X-51.2714 Y36.4431 
N17120 G01 X-51.2797 Y36.4555 
N17130 G01 X-51.2897 Y36.4665 
N17140 G01 X-51.3128 Y36.5051 
N17150 G01 X-51.3378 Y36.5425 
N17160 G01 X-51.3435 Y36.5563 
N17170 G01 X-51.3512 Y36.5690 
N17180 G01 X-51.3663 Y36.6114 
N17190 G01 X-51.3836 Y36.6530 
N17200 G01 X-51.3865 Y36.6676 
N17210 G01 X-51.3915 Y36.6815 
N17220 G01 X-51.3981 Y36.7261 
N17230 G01 X-51.4069 Y36.7702 
N17240 G01 X-51.4069 Y36.7851 
N17250 G01 X-51.4091 Y36.7998 
N17260 G01 X-51.4069 Y36.8447 
N17270 G01 X-51.4069 Y36.8898 
N17280 G01 X-51.4040 Y36.9044 
N17290 G01 X-51.4033 Y36.9192 
N17300 G01 X-51.3924 Y36.9629 
N17310 G01 X-51.3836 Y37.0070 
N17320 G01 X-51.3779 Y37.0208 
N17330 G01 X-50.4343 Y40.7951 
N17340 G01 X-50.5657 Y40.7951 
N17350 G01 X-50.6020 Y40.8102 
N17360 G01 X-50.6298 Y40.8380 
N17370 G01 X-50.6449 Y40.8743 
N17380 G01 X-50.6449 Y42.9457 
N17390 G01 X-50.6298 Y42.9820 
N17400 G01 X-50.6020 Y43.0098 
N17410 G01 X-50.5657 Y43.0249 
N17420 G01 X-48.4943 Y43.0249 
N17430 G01 X-48.4580 Y43.0098 
N17440 G01 X-48.4302 Y42.9820 
N17450 G01 X-48.4151 Y42.9457 
N17460 G01 X-48.4151 Y40.8743 
N17470 G01 X-48.4302 Y40.8380 
N17480 G01 X-48.4580 Y40.8102 
N17490 G01 X-48.4943 Y40.7951 
N17500 G01 X-49.1831 Y40.7951 
N17510 G01 X-50.1279 Y37.0162 
N17520 G01 X-48.4150 Y35.3033 
N17530 G01 X-47.3259 Y35.3033 
N17540 G01 X-47.2896 Y35.2882 
N17550 G01 X-47.2618 Y35.2604 
N17560 G01 X-47.2467 Y35.2241 
N17570 G01 X-47.2467 Y34.8969 
N17580 G01 X-43.1202 Y34.8969 
N17590 G01 X-43.0030 Y34.8736 
N17600 G01 X-42.8925 Y34.8278 
N17610 G01 X-42.7931 Y34.7614 
N17620 G01 X-42.7086 Y34.6769 
N17630 G01 X-42.6422 Y34.5775 
N17640 G01 X-42.5964 Y34.4670 
N17650 G01 X-42.5731 Y34.3498 
N17660 G01 X-42.5731 Y33.6269 
N17670 G01 X-7.5602 Y33.6269 
N17680 G01 X-7.4430 Y33.6036 
N17690 G01 X-7.3325 Y33.5578 
N17700 G01 X-7.2331 Y33.4914 
N17710 G01 X-7.1486 Y33.4069 
N17720 G01 X-7.0822 Y33.3075 
N17730 G01 X-7.0364 Y33.1970 
N17740 G01 X-7.0131 Y33.0798 
N17750 G01 X-7.0131 Y29.0549 
N17760 G01 X-6.5843 Y29.0549 
N17770 G01 X-6.5480 Y29.0398 
N17780 G01 X-6.5202 Y29.0120 
N17790 G01 X-6.5051 Y28.9757 
N17800 G01 X-6.5051 Y26.9043 
N17810 G01 X-6.5202 Y26.8680 
N17820 G01 X-6.5480 Y26.8402 
N17830 G01 X-6.5843 Y26.8251 
N17840 G01 X-8.6557 Y26.8251 
N17850 G01 X-8.6920 Y26.8402 
N17860 G00 Z2.5400 
N17870 G00 X-8.8556 Y40.6709 
N17880 G01 Z-0.1778 F254.00 
N17890 G01 X-8.9509 Y40.6073 F1000.00 
N17900 G01 X-9.0567 Y40.5634 
N17910 G01 X-9.1690 Y40.5411 
N17920 G01 X-9.2836 Y40.5411 
N17930 G01 X-9.3959 Y40.5634 
N17940 G01 X-9.5017 Y40.6073 
N17950 G01 X-9.5970 Y40.6709 
N17960 G01 X-9.6780 Y40.7519 
N17970 G01 X-9.7416 Y40.8472 
N17980 G01 X-9.7855 Y40.9530 
N17990 G01 X-9.8078 Y41.0653 
N18000 G01 X-9.8078 Y41.1799 
N18010 G01 X-9.8078 Y46.6710 
N18020 G01 X-9.7855 Y46.7833 
N18030 G01 X-9.7416 Y46.8891 
N18040 G01 X-9.6780 Y46.9844 
N18050 G01 X-9.5970 Y47.0654 
N18060 G01 X-9.5017 Y47.1290 
N18070 G01 X-9.3959 Y47.1728 
N18080 G01 X-9.2836 Y47.1952 
N18090 G01 X-9.1690 Y47.1952 
N18100 G01 X-9.0567 Y47.1728 
N18110 G01 X-8.9509 Y47.1290 
N18120 G01 X-8.8556 Y47.0654 
N18130 G01 X-8.7746 Y46.9844 
N18140 G01 X-8.7110 Y46.8891 
N18150 G01 X-8.6672 Y46.7833 
N18160 G01 X-8.6448 Y46.6710 
N18170 G01 X-8.6448 Y42.5265 
N18180 G01 X-7.8476 Y43.3236 
N18190 G01 X-7.7666 Y43.4046 
N18200 G01 X-7.6714 Y43.4683 
N18210 G01 X-7.5656 Y43.5121 
N18220 G01 X-7.4532 Y43.5345 
N18230 G01 X-7.3387 Y43.5345 
N18240 G01 X-7.2263 Y43.5121 
N18250 G01 X-7.1205 Y43.4683 
N18260 G01 X-7.0253 Y43.4046 
N18270 G01 X-6.1471 Y42.5265 
N18280 G01 X-6.1471 Y46.6710 
N18290 G01 X-6.1247 Y46.7833 
N18300 G01 X-6.0809 Y46.8891 
N18310 G01 X-6.0173 Y46.9844 
N18320 G01 X-5.9363 Y47.0654 
N18330 G01 X-5.8410 Y47.1290 
N18340 G01 X-5.7352 Y47.1728 
N18350 G01 X-5.6228 Y47.1952 
N18360 G01 X-5.5083 Y47.1952 
N18370 G01 X-5.3960 Y47.1728 
N18380 G01 X-5.2901 Y47.1290 
N18390 G01 X-5.1949 Y47.0654 
N18400 G01 X-5.1139 Y46.9844 
N18410 G01 X-5.0503 Y46.8891 
N18420 G01 X-5.0064 Y46.7833 
N18430 G01 X-4.9841 Y46.6710 
N18440 G01 X-4.9841 Y41.0653 
N18450 G01 X-5.0064 Y40.9530 
N18460 G01 X-5.0503 Y40.8472 
N18470 G01 X-5.1139 Y40.7519 
N18480 G01 X-5.1949 Y40.6709 
N18490 G01 X-5.2901 Y40.6073 
N18500 G01 X-5.3929 Y40.5647 
N18510 G01 X-5.3960 Y40.5634 
N18520 G01 X-5.5083 Y40.5411 
N18530 G01 X-5.6228 Y40.5411 
N18540 G01 X-5.7352 Y40.5634 
N18550 G01 X-5.8410 Y40.6073 
N18560 G01 X-5.9363 Y40.6709 
N18570 G01 X-5.9512 Y40.6859 
N18580 G01 X-7.3959 Y42.1306 
N18590 G01 X-8.8556 Y40.6709 
N18600 G00 Z2.5400 
N18610 G00 X-11.0544 Y41.6671 
N18620 G01 Z-0.1778 F254.00 
N18630 G01 X-12.0506 Y40.6709 F1000.00 
N18640 G01 X-12.1459 Y40.6073 
N18650 G01 X-12.2517 Y40.5634 
N18660 G01 X-12.3640 Y40.5411 
N18670 G01 X-14.3089 Y40.5411 
N18680 G01 X-14.4213 Y40.5634 
N18690 G01 X-14.5271 Y40.6073 
N18700 G01 X-14.6224 Y40.6709 
N18710 G01 X-14.7034 Y40.7519 
N18720 G01 X-15.6185 Y41.6671 
N18730 G01 X-15.6822 Y41.7623 
N18740 G01 X-15.7260 Y41.8682 
N18750 G01 X-15.7484 Y41.9805 
N18760 G01 X-15.7484 Y45.7558 
N18770 G01 X-15.7260 Y45.8681 
N18780 G01 X-15.6822 Y45.9740 
N18790 G01 X-15.6185 Y46.0692 
N18800 G01 X-15.5375 Y46.1502 
N18810 G01 X-14.6224 Y47.0654 
N18820 G01 X-14.5271 Y47.1290 
N18830 G01 X-14.4213 Y47.1728 
N18840 G01 X-14.3089 Y47.1952 
N18850 G01 X-12.3640 Y47.1952 
N18860 G01 X-12.2517 Y47.1728 
N18870 G01 X-12.1459 Y47.1290 
N18880 G01 X-12.0506 Y47.0654 
N18890 G01 X-12.0428 Y47.0576 
N18900 G01 X-11.0544 Y46.0692 
N18910 G01 X-10.9908 Y45.9740 
N18920 G01 X-10.9470 Y45.8681 
N18930 G01 X-10.9246 Y45.7558 
N18940 G01 X-10.9246 Y45.6412 
N18950 G01 X-10.9470 Y45.5289 
N18960 G01 X-10.9908 Y45.4231 
N18970 G01 X-11.0544 Y45.3278 
N18980 G01 X-11.1354 Y45.2468 
N18990 G01 X-11.2307 Y45.1832 
N19000 G01 X-11.3365 Y45.1394 
N19010 G01 X-11.4489 Y45.1170 
N19020 G01 X-11.5634 Y45.1170 
N19030 G01 X-11.6757 Y45.1394 
N19040 G01 X-11.7816 Y45.1832 
N19050 G01 X-11.8768 Y45.2468 
N19060 G01 X-12.6622 Y46.0322 
N19070 G01 X-14.0108 Y46.0322 
N19080 G01 X-14.5854 Y45.4576 
N19090 G01 X-14.5854 Y42.2786 
N19100 G01 X-14.0108 Y41.7041 
N19110 G01 X-12.6622 Y41.7041 
N19120 G01 X-12.0876 Y42.2786 
N19130 G01 X-12.0876 Y43.2866 
N19140 G01 X-13.3938 Y43.2866 
N19150 G01 X-13.5061 Y43.3090 
N19160 G01 X-13.6119 Y43.3528 
N19170 G01 X-13.7072 Y43.4165 
N19180 G01 X-13.7882 Y43.4975 
N19190 G01 X-13.8518 Y43.5927 
N19200 G01 X-13.8956 Y43.6985 
N19210 G01 X-13.9180 Y43.8109 
N19220 G01 X-13.9180 Y43.9254 
N19230 G01 X-13.8956 Y44.0378 
N19240 G01 X-13.8518 Y44.1436 
N19250 G01 X-13.7882 Y44.2388 
N19260 G01 X-13.7072 Y44.3198 
N19270 G01 X-13.6119 Y44.3835 
N19280 G01 X-13.5061 Y44.4273 
N19290 G01 X-13.3938 Y44.4496 
N19300 G01 X-11.4489 Y44.4496 
N19310 G01 X-11.3365 Y44.4273 
N19320 G01 X-11.2307 Y44.3835 
N19330 G01 X-11.1354 Y44.3198 
N19340 G01 X-11.0544 Y44.2388 
N19350 G01 X-10.9908 Y44.1436 
N19360 G01 X-10.9470 Y44.0378 
N19370 G01 X-10.9246 Y43.9254 
N19380 G01 X-10.9246 Y41.9805 
N19390 G01 X-10.9259 Y41.9741 
N19400 G01 X-10.9470 Y41.8682 
N19410 G01 X-10.9908 Y41.7623 
N19420 G01 X-11.0544 Y41.6671 
N19430 G00 Z2.5400 
N19440 G00 X-16.9950 Y41.6671 
N19450 G01 Z-0.1778 F254.00 
N19460 G01 X-17.9912 Y40.6709 F1000.00 
N19470 G01 X-18.0864 Y40.6073 
N19480 G01 X-18.1922 Y40.5634 
N19490 G01 X-18.3046 Y40.5411 
N19500 G01 X-20.2495 Y40.5411 
N19510 G01 X-20.3618 Y40.5634 
N19520 G01 X-20.4677 Y40.6073 
N19530 G01 X-20.5629 Y40.6709 
N19540 G01 X-20.6439 Y40.7519 
N19550 G01 X-21.5591 Y41.6671 
N19560 G01 X-21.6227 Y41.7623 
N19570 G01 X-21.6666 Y41.8682 
N19580 G01 X-21.6889 Y41.9805 
N19590 G01 X-21.6889 Y45.7558 
N19600 G01 X-21.6666 Y45.8681 
N19610 G01 X-21.6227 Y45.9740 
N19620 G01 X-21.5591 Y46.0692 
N19630 G01 X-21.4781 Y46.1502 
N19640 G01 X-20.5629 Y47.0654 
N19650 G01 X-20.4677 Y47.1290 
N19660 G01 X-20.3618 Y47.1728 
N19670 G01 X-20.2495 Y47.1952 
N19680 G01 X-18.3046 Y47.1952 
N19690 G01 X-18.1922 Y47.1728 
N19700 G01 X-18.0864 Y47.1290 
N19710 G01 X-17.9912 Y47.0654 
N19720 G01 X-17.9834 Y47.0576 
N19730 G01 X-16.9950 Y46.0692 
N19740 G01 X-16.9314 Y45.9740 
N19750 G01 X-16.8875 Y45.8681 
N19760 G01 X-16.8652 Y45.7558 
N19770 G01 X-16.8652 Y45.6412 
N19780 G01 X-16.8875 Y45.5289 
N19790 G01 X-16.9314 Y45.4231 
N19800 G01 X-16.9950 Y45.3278 
N19810 G01 X-17.0760 Y45.2468 
N19820 G01 X-17.1712 Y45.1832 
N19830 G01 X-17.2770 Y45.1394 
N19840 G01 X-17.3894 Y45.1170 
N19850 G01 X-17.5039 Y45.1170 
N19860 G01 X-17.6163 Y45.1394 
N19870 G01 X-17.7221 Y45.1832 
N19880 G01 X-17.8174 Y45.2468 
N19890 G01 X-18.6027 Y46.0322 
N19900 G01 X-19.9514 Y46.0322 
N19910 G01 X-20.5259 Y45.4576 
N19920 G01 X-20.5259 Y42.2786 
N19930 G01 X-19.9514 Y41.7041 
N19940 G01 X-18.6027 Y41.7041 
N19950 G01 X-17.8174 Y42.4895 
N19960 G01 X-17.7221 Y42.5531 
N19970 G01 X-17.6163 Y42.5969 
N19980 G01 X-17.5039 Y42.6193 
N19990 G01 X-17.3894 Y42.6193 
N20000 G01 X-17.2770 Y42.5969 
N20010 G01 X-17.1712 Y42.5531 
N20020 G01 X-17.0760 Y42.4895 
N20030 G01 X-16.9950 Y42.4085 
N20040 G01 X-16.9314 Y42.3132 
N20050 G01 X-16.8875 Y42.2074 
N20060 G01 X-16.8652 Y42.0951 
N20070 G01 X-16.8652 Y41.9805 
N20080 G01 X-16.8875 Y41.8682 
N20090 G01 X-16.9314 Y41.7623 
N20100 G01 X-16.9950 Y41.6671 
N00000 G00 Z2.5400 
N00010 G00 X-0.7598 Y8.4712 
N00020 G01 Z-0.1778 F254.00 
N00030 G01 X-0.8512 Y8.3798 F1000.00 
N00040 G01 X-0.9588 Y8.3079 
N00050 G01 X-1.0784 Y8.2583 
N00060 G01 X-1.2053 Y8.2331 
N00070 G01 X-14.1767 Y8.2331 
N00080 G01 X-14.1767 Y7.9460 
N00090 G01 X-14.1994 Y7.8913 
N00100 G01 X-14.2413 Y7.8494 
N00110 G01 X-14.2960 Y7.8267 
N00120 G01 X-16.1840 Y7.8267 
N00130 G01 X-16.2387 Y7.8494 
N00140 G01 X-16.2806 Y7.8913 
N00150 G01 X-16.3033 Y7.9460 
N00160 G01 X-16.3033 Y9.8340 
N00170 G01 X-16.2806 Y9.8887 
N00180 G01 X-16.2387 Y9.9306 
N00190 G01 X-16.1840 Y9.9533 
N00200 G01 X-15.8969 Y9.9533 
N00210 G01 X-15.8969 Y11.5351 
N00220 G01 X-16.2856 Y11.5351 
N00230 G01 X-16.3403 Y11.5578 
N00240 G01 X-16.3822 Y11.5997 
N00250 G01 X-16.4049 Y11.6544 
N00260 G01 X-16.4049 Y13.7456 
N00270 G01 X-16.3822 Y13.8003 
N00280 G01 X-16.3403 Y13.8422 
N00290 G01 X-16.2856 Y13.8649 
N00300 G01 X-14.1944 Y13.8649 
N00310 G01 X-14.1397 Y13.8422 
N00320 G01 X-14.0978 Y13.8003 
N00330 G01 X-14.0751 Y13.7456 
N00340 G01 X-14.0751 Y11.6544 
N00350 G01 X-14.0978 Y11.5997 
N00360 G01 X-14.1397 Y11.5578 
N00370 G01 X-14.1944 Y11.5351 
N00380 G01 X-14.5831 Y11.5351 
N00390 G01 X-14.5831 Y9.9533 
N00400 G01 X-14.2960 Y9.9533 
N00410 G01 X-14.2413 Y9.9306 
N00420 G01 X-14.1994 Y9.8887 
N00430 G01 X-14.1767 Y9.8340 
N00440 G01 X-14.1767 Y9.5469 
N00450 G01 X-1.9269 Y9.5469 
N00460 G01 X-1.9269 Y37.4431 
N00470 G01 X-30.5447 Y37.4431 
N00480 G01 X-30.6716 Y37.4683 
N00490 G01 X-30.7912 Y37.5179 
N00500 G01 X-30.8987 Y37.5898 
N00510 G01 X-30.9902 Y37.6812 
N00520 G01 X-31.0621 Y37.7888 
N00530 G01 X-31.1117 Y37.9084 
N00540 G01 X-31.1369 Y38.0353 
N00550 G01 X-31.1369 Y40.7451 
N00560 G01 X-31.5256 Y40.7451 
N00570 G01 X-31.5803 Y40.7678 
N00580 G01 X-31.6222 Y40.8097 
N00590 G01 X-31.6449 Y40.8644 
N00600 G01 X-31.6449 Y42.9556 
N00610 G01 X-31.6222 Y43.0103 
N00620 G01 X-31.5803 Y43.0522 
N00630 G01 X-31.5256 Y43.0749 
N00640 G01 X-29.4344 Y43.0749 
N00650 G01 X-29.3797 Y43.0522 
N00660 G01 X-29.3378 Y43.0103 
N00670 G01 X-29.3151 Y42.9556 
N00680 G01 X-29.3151 Y40.8644 
N00690 G01 X-29.3378 Y40.8097 
N00700 G01 X-29.3797 Y40.7678 
N00710 G01 X-29.4344 Y40.7451 
N00720 G01 X-29.8231 Y40.7451 
N00730 G01 X-29.8231 Y38.7569 
N00740 G01 X-1.2053 Y38.7569 
N00750 G01 X-1.0784 Y38.7317 
N00760 G01 X-0.9588 Y38.6821 
N00770 G01 X-0.8512 Y38.6102 
N00780 G01 X-0.7598 Y38.5187 
N00790 G01 X-0.6879 Y38.4112 
N00800 G01 X-0.6383 Y38.2916 
N00810 G01 X-0.6131 Y38.1647 
N00820 G01 X-0.6131 Y8.8253 
N00830 G01 X-0.6383 Y8.6984 
N00840 G01 X-0.6879 Y8.5788 
N00850 G01 X-0.7598 Y8.4712 
N00860 G00 Z2.5400 
N00870 G00 X-6.4778 Y11.5997 
N00880 G01 Z-0.1778 F254.00 
N00890 G01 X-6.5197 Y11.5578 F1000.00 
N00900 G01 X-6.5744 Y11.5351 
N00910 G01 X-8.6656 Y11.5351 
N00920 G01 X-8.7203 Y11.5578 
N00930 G01 X-8.7622 Y11.5997 
N00940 G01 X-8.7849 Y11.6544 
N00950 G01 X-8.7849 Y13.7456 
N00960 G01 X-8.7622 Y13.8003 
N00970 G01 X-8.7203 Y13.8422 
N00980 G01 X-8.6656 Y13.8649 
N00990 G01 X-6.5744 Y13.8649 
N01000 G01 X-6.5197 Y13.8422 
N01010 G01 X-6.4778 Y13.8003 
N01020 G01 X-6.4551 Y13.7456 
N01030 G01 X-6.4551 Y11.6544 
N01040 G01 X-6.4778 Y11.5997 
N01050 G00 Z2.5400 
N01060 G00 X-9.0178 Y11.5997 
N01070 G01 Z-0.1778 F254.00 
N01080 G01 X-9.0597 Y11.5578 F1000.00 
N01090 G01 X-9.1144 Y11.5351 
N01100 G01 X-11.2056 Y11.5351 
N01110 G01 X-11.2603 Y11.5578 
N01120 G01 X-11.3022 Y11.5997 
N01130 G01 X-11.3249 Y11.6544 
N01140 G01 X-11.3249 Y13.7456 
N01150 G01 X-11.3022 Y13.8003 
N01160 G01 X-11.2603 Y13.8422 
N01170 G01 X-11.2056 Y13.8649 
N01180 G01 X-9.1144 Y13.8649 
N01190 G01 X-9.0597 Y13.8422 
N01200 G01 X-9.0178 Y13.8003 
N01210 G01 X-8.9951 Y13.7456 
N01220 G01 X-8.9951 Y11.6544 
N01230 G01 X-9.0178 Y11.5997 
N01240 G00 Z2.5400 
N01250 G00 X-11.5578 Y11.5997 
N01260 G01 Z-0.1778 F254.00 
N01270 G01 X-11.5997 Y11.5578 F1000.00 
N01280 G01 X-11.6544 Y11.5351 
N01290 G01 X-13.7456 Y11.5351 
N01300 G01 X-13.8003 Y11.5578 
N01310 G01 X-13.8422 Y11.5997 
N01320 G01 X-13.8649 Y11.6544 
N01330 G01 X-13.8649 Y13.7456 
N01340 G01 X-13.8422 Y13.8003 
N01350 G01 X-13.8003 Y13.8422 
N01360 G01 X-13.7456 Y13.8649 
N01370 G01 X-11.6544 Y13.8649 
N01380 G01 X-11.5997 Y13.8422 
N01390 G01 X-11.5578 Y13.8003 
N01400 G01 X-11.5351 Y13.7456 
N01410 G01 X-11.5351 Y11.6544 
N01420 G01 X-11.5578 Y11.5997 
N01430 G00 Z2.5400 
N01440 G00 X-16.6378 Y11.5997 
N01450 G01 Z-0.1778 F254.00 
N01460 G01 X-16.6797 Y11.5578 F1000.00 
N01470 G01 X-16.7344 Y11.5351 
N01480 G01 X-18.8256 Y11.5351 
N01490 G01 X-18.8803 Y11.5578 
N01500 G01 X-18.9222 Y11.5997 
N01510 G01 X-18.9449 Y11.6544 
N01520 G01 X-18.9449 Y13.7456 
N01530 G01 X-18.9222 Y13.8003 
N01540 G01 X-18.8803 Y13.8422 
N01550 G01 X-18.8256 Y13.8649 
N01560 G01 X-16.7344 Y13.8649 
N01570 G01 X-16.6797 Y13.8422 
N01580 G01 X-16.6378 Y13.8003 
N01590 G01 X-16.6151 Y13.7456 
N01600 G01 X-16.6151 Y11.6544 
N01610 G01 X-16.6378 Y11.5997 
N01620 G00 Z2.5400 
N01630 G00 X-19.1778 Y11.5997 
N01640 G01 Z-0.1778 F254.00 
N01650 G01 X-19.2197 Y11.5578 F1000.00 
N01660 G01 X-19.2744 Y11.5351 
N01670 G01 X-21.3656 Y11.5351 
N01680 G01 X-21.4203 Y11.5578 
N01690 G01 X-21.4622 Y11.5997 
N01700 G01 X-21.4849 Y11.6544 
N01710 G01 X-21.4849 Y13.7456 
N01720 G01 X-21.4622 Y13.8003 
N01730 G01 X-21.4203 Y13.8422 
N01740 G01 X-21.3656 Y13.8649 
N01750 G01 X-19.2744 Y13.8649 
N01760 G01 X-19.2197 Y13.8422 
N01770 G01 X-19.1778 Y13.8003 
N01780 G01 X-19.1551 Y13.7456 
N01790 G01 X-19.1551 Y11.6544 
N01800 G01 X-19.1778 Y11.5997 
N01810 G00 Z2.5400 
N01820 G00 X-21.7178 Y11.5997 
N01830 G01 Z-0.1778 F254.00 
N01840 G01 X-21.7597 Y11.5578 F1000.00 
N01850 G01 X-21.8144 Y11.5351 
N01860 G01 X-23.9056 Y11.5351 
N01870 G01 X-23.9603 Y11.5578 
N01880 G01 X-24.0022 Y11.5997 
N01890 G01 X-24.0249 Y11.6544 
N01900 G01 X-24.0249 Y13.7456 
N01910 G01 X-24.0022 Y13.8003 
N01920 G01 X-23.9603 Y13.8422 
N01930 G01 X-23.9056 Y13.8649 
N01940 G01 X-21.8144 Y13.8649 
N01950 G01 X-21.7597 Y13.8422 
N01960 G01 X-21.7178 Y13.8003 
N01970 G01 X-21.6951 Y13.7456 
N01980 G01 X-21.6951 Y11.6544 
N01990 G01 X-21.7178 Y11.5997 
N02000 G00 Z2.5400 
N02010 G00 X-24.2578 Y11.5997 
N02020 G01 Z-0.1778 F254.00 
N02030 G01 X-24.2997 Y11.5578 F1000.00 
N02040 G01 X-24.3544 Y11.5351 
N02050 G01 X-24.7431 Y11.5351 
N02060 G01 X-24.7431 Y3.7453 
N02070 G01 X-24.7683 Y3.6184 
N02080 G01 X-24.8179 Y3.4988 
N02090 G01 X-24.8898 Y3.3912 
N02100 G01 X-24.9812 Y3.2998 
N02110 G01 X-25.0888 Y3.2279 
N02120 G01 X-25.2084 Y3.1783 
N02130 G01 X-25.3353 Y3.1531 
N02140 G01 X-60.9593 Y3.1531 
N02150 G01 X-61.0240 Y3.1530 
N02160 G01 X-61.0871 Y3.1655 
N02170 G01 X-61.1510 Y3.1781 
N02180 G01 X-61.2110 Y3.2029 
N02190 G01 X-61.2705 Y3.2275 
N02200 G01 X-61.3246 Y3.2636 
N02210 G01 X-68.9014 Y8.3148 
N02220 G01 X-68.9133 Y8.3202 
N02230 G01 X-68.9552 Y8.3506 
N02240 G01 X-68.9982 Y8.3793 
N02250 G01 X-69.0075 Y8.3886 
N02260 G01 X-69.0180 Y8.3962 
N02270 G01 X-69.0532 Y8.4342 
N02280 G01 X-69.0898 Y8.4707 
N02290 G01 X-69.0971 Y8.4816 
N02300 G01 X-69.1060 Y8.4912 
N02310 G01 X-69.1330 Y8.5352 
N02320 G01 X-69.1618 Y8.5782 
N02330 G01 X-69.1668 Y8.5903 
N02340 G01 X-69.1737 Y8.6014 
N02350 G01 X-69.1916 Y8.6499 
N02360 G01 X-69.2115 Y8.6977 
N02370 G01 X-69.2140 Y8.7106 
N02380 G01 X-69.2185 Y8.7228 
N02390 G01 X-69.2267 Y8.7739 
N02400 G01 X-69.2368 Y8.8246 
N02410 G01 X-69.2368 Y8.8377 
N02420 G01 X-69.2389 Y8.8506 
N02430 G01 X-69.2369 Y8.9022 
N02440 G01 X-69.2370 Y8.9540 
N02450 G01 X-69.2344 Y8.9669 
N02460 G01 X-67.9678 Y41.8993 
N02470 G01 X-67.9698 Y41.9280 
N02480 G01 X-67.9653 Y41.9638 
N02490 G01 X-67.9639 Y41.9999 
N02500 G01 X-67.9572 Y42.0278 
N02510 G01 X-67.9536 Y42.0564 
N02520 G01 X-67.9422 Y42.0906 
N02530 G01 X-67.9338 Y42.1257 
N02540 G01 X-67.9218 Y42.1518 
N02550 G01 X-66.6762 Y45.8886 
N02560 G01 X-66.6717 Y45.9116 
N02570 G01 X-66.6558 Y45.9498 
N02580 G01 X-66.6427 Y45.9891 
N02590 G01 X-66.6311 Y46.0095 
N02600 G01 X-66.6221 Y46.0312 
N02610 G01 X-66.5991 Y46.0656 
N02620 G01 X-66.5786 Y46.1015 
N02630 G01 X-66.5633 Y46.1193 
N02640 G01 X-66.5502 Y46.1387 
N02650 G01 X-66.5210 Y46.1680 
N02660 G01 X-66.4939 Y46.1993 
N02670 G01 X-66.4753 Y46.2137 
N02680 G01 X-66.4587 Y46.2302 
N02690 G01 X-66.4244 Y46.2532 
N02700 G01 X-66.3916 Y46.2786 
N02710 G01 X-66.3707 Y46.2891 
N02720 G01 X-66.3512 Y46.3021 
N02730 G01 X-66.3129 Y46.3180 
N02740 G01 X-66.2759 Y46.3365 
N02750 G01 X-66.2533 Y46.3427 
N02760 G01 X-66.2316 Y46.3517 
N02770 G01 X-66.1910 Y46.3597 
N02780 G01 X-66.1511 Y46.3707 
N02790 G01 X-66.1277 Y46.3723 
N02800 G01 X-66.1047 Y46.3769 
N02810 G01 X-66.0633 Y46.3769 
N02820 G01 X-66.0220 Y46.3798 
N02830 G01 X-65.9988 Y46.3769 
N02840 G01 X-64.8112 Y46.3769 
N02850 G01 X-64.7880 Y46.3798 
N02860 G01 X-64.7467 Y46.3769 
N02870 G01 X-64.7053 Y46.3769 
N02880 G01 X-64.6823 Y46.3723 
N02890 G01 X-64.6589 Y46.3707 
N02900 G01 X-64.6190 Y46.3597 
N02910 G01 X-64.5784 Y46.3517 
N02920 G01 X-64.5567 Y46.3427 
N02930 G01 X-64.5341 Y46.3365 
N02940 G01 X-64.4971 Y46.3180 
N02950 G01 X-64.4588 Y46.3021 
N02960 G01 X-64.4394 Y46.2891 
N02970 G01 X-61.9571 Y45.0480 
N02980 G01 X-61.9188 Y45.0321 
N02990 G01 X-61.8993 Y45.0191 
N03000 G01 X-61.8784 Y45.0086 
N03010 G01 X-61.8456 Y44.9832 
N03020 G01 X-61.8113 Y44.9602 
N03030 G01 X-61.7947 Y44.9437 
N03040 G01 X-61.7761 Y44.9293 
N03050 G01 X-61.7490 Y44.8980 
N03060 G01 X-61.7198 Y44.8687 
N03070 G01 X-61.7067 Y44.8493 
N03080 G01 X-61.6913 Y44.8315 
N03090 G01 X-61.6709 Y44.7956 
N03100 G01 X-61.6479 Y44.7612 
N03110 G01 X-61.6389 Y44.7395 
N03120 G01 X-61.6273 Y44.7191 
N03130 G01 X-61.6142 Y44.6798 
N03140 G01 X-61.5983 Y44.6416 
N03150 G01 X-61.5938 Y44.6186 
N03160 G01 X-61.5864 Y44.5964 
N03170 G01 X-61.5812 Y44.5553 
N03180 G01 X-61.5731 Y44.5147 
N03190 G01 X-61.5731 Y44.4912 
N03200 G01 X-61.5702 Y44.4680 
N03210 G01 X-61.5731 Y44.4267 
N03220 G01 X-61.5731 Y43.0749 
N03230 G01 X-61.1844 Y43.0749 
N03240 G01 X-61.1297 Y43.0522 
N03250 G01 X-61.0878 Y43.0103 
N03260 G01 X-61.0651 Y42.9556 
N03270 G01 X-61.0651 Y40.8644 
N03280 G01 X-61.0878 Y40.8097 
N03290 G01 X-61.1297 Y40.7678 
N03300 G01 X-61.1844 Y40.7451 
N03310 G01 X-63.2756 Y40.7451 
N03320 G01 X-63.3303 Y40.7678 
N03330 G01 X-63.3722 Y40.8097 
N03340 G01 X-63.3949 Y40.8644 
N03350 G01 X-63.3949 Y42.9556 
N03360 G01 X-63.3722 Y43.0103 
N03370 G01 X-63.3303 Y43.0522 
N03380 G01 X-63.2756 Y43.0749 
N03390 G01 X-62.8869 Y43.0749 
N03400 G01 X-62.8869 Y44.0440 
N03410 G01 X-64.9251 Y45.0631 
N03420 G01 X-65.5665 Y45.0631 
N03430 G01 X-66.6572 Y41.7911 
N03440 G01 X-67.9094 Y9.2325 
N03450 G01 X-60.7611 Y4.4669 
N03460 G01 X-26.0569 Y4.4669 
N03470 G01 X-26.0569 Y11.5351 
N03480 G01 X-26.4456 Y11.5351 
N03490 G01 X-26.5003 Y11.5578 
N03500 G01 X-26.5422 Y11.5997 
N03510 G01 X-26.5649 Y11.6544 
N03520 G01 X-26.5649 Y13.7456 
N03530 G01 X-26.5422 Y13.8003 
N03540 G01 X-26.5003 Y13.8422 
N03550 G01 X-26.4456 Y13.8649 
N03560 G01 X-24.3544 Y13.8649 
N03570 G01 X-24.2997 Y13.8422 
N03580 G01 X-24.2578 Y13.8003 
N03590 G01 X-24.2351 Y13.7456 
N03600 G01 X-24.2351 Y11.6544 
N03610 G01 X-24.2578 Y11.5997 
N03620 G00 Z2.5400 
N03630 G00 X-26.7978 Y11.5997 
N03640 G01 Z-0.1778 F254.00 
N03650 G01 X-26.8397 Y11.5578 F1000.00 
N03660 G01 X-26.8944 Y11.5351 
N03670 G01 X-27.2831 Y11.5351 
N03680 G01 X-27.2831 Y6.2853 
N03690 G01 X-27.3083 Y6.1584 
N03700 G01 X-27.3579 Y6.0388 
N03710 G01 X-27.4298 Y5.9313 
N03720 G01 X-27.5212 Y5.8398 
N03730 G01 X-27.6288 Y5.7679 
N03740 G01 X-27.7484 Y5.7183 
N03750 G01 X-27.8753 Y5.6931 
N03760 G01 X-60.9133 Y5.6931 
N03770 G01 X-60.9311 Y5.6906 
N03780 G01 X-60.9779 Y5.6931 
N03790 G01 X-61.0247 Y5.6931 
N03800 G01 X-61.0424 Y5.6966 
N03810 G01 X-61.0604 Y5.6976 
N03820 G01 X-61.1057 Y5.7092 
N03830 G01 X-61.1516 Y5.7183 
N03840 G01 X-61.1683 Y5.7252 
N03850 G01 X-61.1857 Y5.7297 
N03860 G01 X-61.2279 Y5.7500 
N03870 G01 X-61.2712 Y5.7679 
N03880 G01 X-61.2861 Y5.7779 
N03890 G01 X-61.3024 Y5.7857 
N03900 G01 X-61.3398 Y5.8138 
N03910 G01 X-61.3787 Y5.8398 
N03920 G01 X-61.3915 Y5.8525 
N03930 G01 X-66.4303 Y9.6316 
N03940 G01 X-66.4788 Y9.6669 
N03950 G01 X-66.4821 Y9.6704 
N03960 G01 X-66.4859 Y9.6733 
N03970 G01 X-66.5259 Y9.7179 
N03980 G01 X-66.5666 Y9.7620 
N03990 G01 X-66.5691 Y9.7661 
N04000 G01 X-66.5723 Y9.7696 
N04010 G01 X-66.6028 Y9.8212 
N04020 G01 X-66.6341 Y9.8724 
N04030 G01 X-66.6358 Y9.8769 
N04040 G01 X-66.6382 Y9.8810 
N04050 G01 X-66.6581 Y9.9375 
N04060 G01 X-66.6788 Y9.9938 
N04070 G01 X-66.6796 Y9.9985 
N04080 G01 X-66.6811 Y10.0030 
N04090 G01 X-66.6896 Y10.0623 
N04100 G01 X-66.6990 Y10.1216 
N04110 G01 X-66.6988 Y10.1264 
N04120 G01 X-66.6994 Y10.1311 
N04130 G01 X-66.6962 Y10.1909 
N04140 G01 X-65.4740 Y40.7451 
N04150 G01 X-65.8156 Y40.7451 
N04160 G01 X-65.8703 Y40.7678 
N04170 G01 X-65.9122 Y40.8097 
N04180 G01 X-65.9349 Y40.8644 
N04190 G01 X-65.9349 Y42.9556 
N04200 G01 X-65.9122 Y43.0103 
N04210 G01 X-65.8703 Y43.0522 
N04220 G01 X-65.8156 Y43.0749 
N04230 G01 X-63.7244 Y43.0749 
N04240 G01 X-63.6697 Y43.0522 
N04250 G01 X-63.6278 Y43.0103 
N04260 G01 X-63.6051 Y42.9556 
N04270 G01 X-63.6051 Y40.8644 
N04280 G01 X-63.6278 Y40.8097 
N04290 G01 X-63.6697 Y40.7678 
N04300 G01 X-63.7244 Y40.7451 
N04310 G01 X-64.1592 Y40.7451 
N04320 G01 X-65.3698 Y10.4785 
N04330 G01 X-60.7410 Y7.0069 
N04340 G01 X-28.5969 Y7.0069 
N04350 G01 X-28.5969 Y11.5351 
N04360 G01 X-28.9856 Y11.5351 
N04370 G01 X-29.0403 Y11.5578 
N04380 G01 X-29.0822 Y11.5997 
N04390 G01 X-29.1049 Y11.6544 
N04400 G01 X-29.1049 Y13.7456 
N04410 G01 X-29.0822 Y13.8003 
N04420 G01 X-29.0403 Y13.8422 
N04430 G01 X-28.9856 Y13.8649 
N04440 G01 X-26.8944 Y13.8649 
N04450 G01 X-26.8397 Y13.8422 
N04460 G01 X-26.7978 Y13.8003 
N04470 G01 X-26.7751 Y13.7456 
N04480 G01 X-26.7751 Y11.6544 
N04490 G01 X-26.7978 Y11.5997 
N04500 G00 Z2.5400 
N04510 G00 X-29.3378 Y11.5997 
N04520 G01 Z-0.1778 F254.00 
N04530 G01 X-29.3797 Y11.5578 F1000.00 
N04540 G01 X-29.4344 Y11.5351 
N04550 G01 X-31.5256 Y11.5351 
N04560 G01 X-31.5803 Y11.5578 
N04570 G01 X-31.6222 Y11.5997 
N04580 G01 X-31.6449 Y11.6544 
N04590 G01 X-31.6449 Y13.7456 
N04600 G01 X-31.6222 Y13.8003 
N04610 G01 X-31.5803 Y13.8422 
N04620 G01 X-31.5256 Y13.8649 
N04630 G01 X-29.4344 Y13.8649 
N04640 G01 X-29.3797 Y13.8422 
N04650 G01 X-29.3378 Y13.8003 
N04660 G01 X-29.3151 Y13.7456 
N04670 G01 X-29.3151 Y11.6544 
N04680 G01 X-29.3378 Y11.5997 
N04690 G00 Z2.5400 
N04700 G00 X-29.4813 Y9.9306 
N04710 G01 Z-0.1778 F254.00 
N04720 G01 X-29.4394 Y9.8887 F1000.00 
N04730 G01 X-29.4167 Y9.8340 
N04740 G01 X-29.4167 Y7.9460 
N04750 G01 X-29.4394 Y7.8913 
N04760 G01 X-29.4813 Y7.8494 
N04770 G01 X-29.5360 Y7.8267 
N04780 G01 X-31.4240 Y7.8267 
N04790 G01 X-31.4787 Y7.8494 
N04800 G01 X-31.5206 Y7.8913 
N04810 G01 X-31.5433 Y7.9460 
N04820 G01 X-31.5433 Y8.2331 
N04830 G01 X-35.6247 Y8.2331 
N04840 G01 X-35.7516 Y8.2583 
N04850 G01 X-35.8712 Y8.3079 
N04860 G01 X-35.9787 Y8.3798 
N04870 G01 X-36.0702 Y8.4712 
N04880 G01 X-36.1421 Y8.5788 
N04890 G01 X-36.1917 Y8.6984 
N04900 G01 X-36.2169 Y8.8253 
N04910 G01 X-36.2169 Y11.5351 
N04920 G01 X-36.6056 Y11.5351 
N04930 G01 X-36.6603 Y11.5578 
N04940 G01 X-36.7022 Y11.5997 
N04950 G01 X-36.7249 Y11.6544 
N04960 G01 X-36.7249 Y13.7456 
N04970 G01 X-36.7022 Y13.8003 
N04980 G01 X-36.6603 Y13.8422 
N04990 G01 X-36.6056 Y13.8649 
N05000 G01 X-36.2169 Y13.8649 
N05010 G01 X-36.2169 Y14.5831 
N05020 G01 X-55.9851 Y14.5831 
N05030 G01 X-55.9851 Y12.9244 
N05040 G01 X-56.0078 Y12.8697 
N05050 G01 X-56.0497 Y12.8278 
N05060 G01 X-56.1044 Y12.8051 
N05070 G01 X-58.1956 Y12.8051 
N05080 G01 X-58.2503 Y12.8278 
N05090 G01 X-58.2922 Y12.8697 
N05100 G01 X-58.3149 Y12.9244 
N05110 G01 X-58.3149 Y15.0156 
N05120 G01 X-58.2922 Y15.0703 
N05130 G01 X-58.2503 Y15.1122 
N05140 G01 X-58.1956 Y15.1349 
N05150 G01 X-57.8069 Y15.1349 
N05160 G01 X-57.8069 Y18.3931 
N05170 G01 X-61.0247 Y18.3931 
N05180 G01 X-61.1516 Y18.4183 
N05190 G01 X-61.2712 Y18.4679 
N05200 G01 X-61.3787 Y18.5398 
N05210 G01 X-61.4702 Y18.6313 
N05220 G01 X-61.5421 Y18.7388 
N05230 G01 X-61.5917 Y18.8584 
N05240 G01 X-61.6169 Y18.9853 
N05250 G01 X-61.6169 Y35.5367 
N05260 G01 X-61.6198 Y35.5780 
N05270 G01 X-61.6169 Y35.6012 
N05280 G01 X-61.6169 Y35.6247 
N05290 G01 X-61.6088 Y35.6653 
N05300 G01 X-61.6036 Y35.7064 
N05310 G01 X-61.5962 Y35.7286 
N05320 G01 X-61.5917 Y35.7516 
N05330 G01 X-61.5758 Y35.7898 
N05340 G01 X-61.5627 Y35.8291 
N05350 G01 X-61.5511 Y35.8495 
N05360 G01 X-61.5421 Y35.8712 
N05370 G01 X-61.5191 Y35.9056 
N05380 G01 X-61.4986 Y35.9415 
N05390 G01 X-61.4833 Y35.9592 
N05400 G01 X-61.4702 Y35.9787 
N05410 G01 X-61.4410 Y36.0080 
N05420 G01 X-61.4139 Y36.0393 
N05430 G01 X-61.3953 Y36.0537 
N05440 G01 X-61.3787 Y36.0702 
N05450 G01 X-61.3443 Y36.0932 
N05460 G01 X-61.3116 Y36.1186 
N05470 G01 X-61.2907 Y36.1291 
N05480 G01 X-61.2712 Y36.1421 
N05490 G01 X-61.2329 Y36.1580 
N05500 G01 X-58.9840 Y37.2824 
N05510 G01 X-58.1183 Y40.7451 
N05520 G01 X-58.1956 Y40.7451 
N05530 G01 X-58.2503 Y40.7678 
N05540 G01 X-58.2922 Y40.8097 
N05550 G01 X-58.3149 Y40.8644 
N05560 G01 X-58.3149 Y42.9556 
N05570 G01 X-58.2922 Y43.0103 
N05580 G01 X-58.2503 Y43.0522 
N05590 G01 X-58.2265 Y43.0621 
N05600 G01 X-59.0358 Y45.4902 
N05610 G01 X-59.0517 Y45.5284 
N05620 G01 X-59.0562 Y45.5514 
N05630 G01 X-59.0636 Y45.5736 
N05640 G01 X-59.0688 Y45.6147 
N05650 G01 X-59.0769 Y45.6553 
N05660 G01 X-59.0769 Y45.6788 
N05670 G01 X-59.0798 Y45.7020 
N05680 G01 X-59.0769 Y45.7433 
N05690 G01 X-59.0769 Y45.7847 
N05700 G01 X-59.0723 Y45.8077 
N05710 G01 X-59.0707 Y45.8311 
N05720 G01 X-59.0597 Y45.8710 
N05730 G01 X-59.0517 Y45.9116 
N05740 G01 X-59.0427 Y45.9333 
N05750 G01 X-59.0365 Y45.9559 
N05760 G01 X-59.0180 Y45.9929 
N05770 G01 X-59.0021 Y46.0312 
N05780 G01 X-58.9891 Y46.0507 
N05790 G01 X-58.9786 Y46.0716 
N05800 G01 X-58.9532 Y46.1043 
N05810 G01 X-58.9302 Y46.1387 
N05820 G01 X-58.9137 Y46.1553 
N05830 G01 X-58.8993 Y46.1739 
N05840 G01 X-58.8680 Y46.2010 
N05850 G01 X-58.8387 Y46.2302 
N05860 G01 X-58.8192 Y46.2433 
N05870 G01 X-58.8015 Y46.2586 
N05880 G01 X-58.7656 Y46.2791 
N05890 G01 X-58.7312 Y46.3021 
N05900 G01 X-58.7095 Y46.3111 
N05910 G01 X-58.6891 Y46.3227 
N05920 G01 X-58.6498 Y46.3358 
N05930 G01 X-58.6116 Y46.3517 
N05940 G01 X-58.5886 Y46.3562 
N05950 G01 X-58.5663 Y46.3636 
N05960 G01 X-58.5253 Y46.3688 
N05970 G01 X-58.4847 Y46.3769 
N05980 G01 X-58.4612 Y46.3769 
N05990 G01 X-58.4380 Y46.3798 
N06000 G01 X-58.3967 Y46.3769 
N06010 G01 X-48.3012 Y46.3769 
N06020 G01 X-48.2780 Y46.3798 
N06030 G01 X-48.2367 Y46.3769 
N06040 G01 X-48.1953 Y46.3769 
N06050 G01 X-48.1723 Y46.3723 
N06060 G01 X-48.1489 Y46.3707 
N06070 G01 X-48.1090 Y46.3597 
N06080 G01 X-48.0684 Y46.3517 
N06090 G01 X-48.0467 Y46.3427 
N06100 G01 X-48.0241 Y46.3365 
N06110 G01 X-47.9871 Y46.3180 
N06120 G01 X-47.9488 Y46.3021 
N06130 G01 X-47.9293 Y46.2891 
N06140 G01 X-47.9084 Y46.2786 
N06150 G01 X-47.8756 Y46.2532 
N06160 G01 X-47.8413 Y46.2302 
N06170 G01 X-47.8247 Y46.2137 
N06180 G01 X-47.8061 Y46.1993 
N06190 G01 X-47.7790 Y46.1680 
N06200 G01 X-47.7498 Y46.1387 
N06210 G01 X-47.7367 Y46.1193 
N06220 G01 X-47.7214 Y46.1015 
N06230 G01 X-47.7009 Y46.0656 
N06240 G01 X-47.6779 Y46.0312 
N06250 G01 X-47.6689 Y46.0095 
N06260 G01 X-47.6573 Y45.9891 
N06270 G01 X-47.6442 Y45.9498 
N06280 G01 X-47.6283 Y45.9116 
N06290 G01 X-47.6238 Y45.8886 
N06300 G01 X-46.6859 Y43.0749 
N06310 G01 X-45.9444 Y43.0749 
N06320 G01 X-45.8897 Y43.0522 
N06330 G01 X-45.8478 Y43.0103 
N06340 G01 X-45.8251 Y42.9556 
N06350 G01 X-45.8251 Y40.8644 
N06360 G01 X-45.8478 Y40.8097 
N06370 G01 X-45.8897 Y40.7678 
N06380 G01 X-45.9444 Y40.7451 
N06390 G01 X-46.6859 Y40.7451 
N06400 G01 X-47.3486 Y38.7569 
N06410 G01 X-37.4869 Y38.7569 
N06420 G01 X-37.4869 Y40.7451 
N06430 G01 X-37.8756 Y40.7451 
N06440 G01 X-37.9303 Y40.7678 
N06450 G01 X-37.9722 Y40.8097 
N06460 G01 X-37.9949 Y40.8644 
N06470 G01 X-37.9949 Y42.9556 
N06480 G01 X-37.9722 Y43.0103 
N06490 G01 X-37.9303 Y43.0522 
N06500 G01 X-37.8756 Y43.0749 
N06510 G01 X-35.7844 Y43.0749 
N06520 G01 X-35.7297 Y43.0522 
N06530 G01 X-35.6878 Y43.0103 
N06540 G01 X-35.6651 Y42.9556 
N06550 G01 X-35.6651 Y40.8644 
N06560 G01 X-35.6878 Y40.8097 
N06570 G01 X-35.7297 Y40.7678 
N06580 G01 X-35.7844 Y40.7451 
N06590 G01 X-36.1731 Y40.7451 
N06600 G01 X-36.1731 Y38.0353 
N06610 G01 X-36.1983 Y37.9084 
N06620 G01 X-36.2479 Y37.7888 
N06630 G01 X-36.3198 Y37.6812 
N06640 G01 X-36.4113 Y37.5898 
N06650 G01 X-36.5188 Y37.5179 
N06660 G01 X-36.6384 Y37.4683 
N06670 G01 X-36.7653 Y37.4431 
N06680 G01 X-48.2367 Y37.4431 
N06690 G01 X-48.2780 Y37.4402 
N06700 G01 X-48.3012 Y37.4431 
N06710 G01 X-48.3247 Y37.4431 
N06720 G01 X-48.3653 Y37.4512 
N06730 G01 X-48.4064 Y37.4564 
N06740 G01 X-48.4286 Y37.4638 
N06750 G01 X-48.4516 Y37.4683 
N06760 G01 X-48.4898 Y37.4842 
N06770 G01 X-48.5291 Y37.4973 
N06780 G01 X-48.5495 Y37.5089 
N06790 G01 X-48.5712 Y37.5179 
N06800 G01 X-48.6056 Y37.5408 
N06810 G01 X-48.6415 Y37.5613 
N06820 G01 X-48.6593 Y37.5767 
N06830 G01 X-48.6787 Y37.5898 
N06840 G01 X-48.7080 Y37.6190 
N06850 G01 X-48.7393 Y37.6461 
N06860 G01 X-48.7537 Y37.6647 
N06870 G01 X-48.7702 Y37.6812 
N06880 G01 X-48.7932 Y37.7156 
N06890 G01 X-48.8186 Y37.7484 
N06900 G01 X-48.8291 Y37.7693 
N06910 G01 X-48.8421 Y37.7888 
N06920 G01 X-48.8580 Y37.8271 
N06930 G01 X-48.8765 Y37.8641 
N06940 G01 X-48.8827 Y37.8867 
N06950 G01 X-48.8917 Y37.9084 
N06960 G01 X-48.8997 Y37.9490 
N06970 G01 X-48.9107 Y37.9889 
N06980 G01 X-48.9123 Y38.0123 
N06990 G01 X-48.9169 Y38.0353 
N07000 G01 X-48.9169 Y38.0767 
N07010 G01 X-48.9198 Y38.1180 
N07020 G01 X-48.9169 Y38.1412 
N07030 G01 X-48.9169 Y38.1647 
N07040 G01 X-48.9088 Y38.2053 
N07050 G01 X-48.9036 Y38.2463 
N07060 G01 X-48.8962 Y38.2686 
N07070 G01 X-48.8917 Y38.2916 
N07080 G01 X-48.8758 Y38.3298 
N07090 G01 X-48.0665 Y40.7579 
N07100 G01 X-48.0903 Y40.7678 
N07110 G01 X-48.1322 Y40.8097 
N07120 G01 X-48.1549 Y40.8644 
N07130 G01 X-48.1549 Y42.9556 
N07140 G01 X-48.1322 Y43.0103 
N07150 G01 X-48.0903 Y43.0522 
N07160 G01 X-48.0665 Y43.0621 
N07170 G01 X-48.7335 Y45.0631 
N07180 G01 X-57.5086 Y45.0631 
N07190 G01 X-56.8459 Y43.0749 
N07200 G01 X-56.1044 Y43.0749 
N07210 G01 X-56.0497 Y43.0522 
N07220 G01 X-56.0078 Y43.0103 
N07230 G01 X-55.9851 Y42.9556 
N07240 G01 X-55.9851 Y40.8644 
N07250 G01 X-56.0078 Y40.8097 
N07260 G01 X-56.0497 Y40.7678 
N07270 G01 X-56.1044 Y40.7451 
N07280 G01 X-56.7641 Y40.7451 
N07290 G01 X-57.7732 Y36.7088 
N07300 G01 X-57.7764 Y36.6836 
N07310 G01 X-57.7888 Y36.6462 
N07320 G01 X-57.7984 Y36.6079 
N07330 G01 X-57.8092 Y36.5850 
N07340 G01 X-57.8173 Y36.5609 
N07350 G01 X-57.8368 Y36.5266 
N07360 G01 X-57.8537 Y36.4909 
N07370 G01 X-57.8688 Y36.4705 
N07380 G01 X-57.8813 Y36.4485 
N07390 G01 X-57.9072 Y36.4187 
N07400 G01 X-57.9307 Y36.3869 
N07410 G01 X-57.9495 Y36.3699 
N07420 G01 X-57.9661 Y36.3507 
N07430 G01 X-57.9973 Y36.3265 
N07440 G01 X-58.0265 Y36.3000 
N07450 G01 X-58.0483 Y36.2869 
N07460 G01 X-58.0684 Y36.2714 
N07470 G01 X-58.1037 Y36.2537 
N07480 G01 X-58.1375 Y36.2334 
N07490 G01 X-58.1614 Y36.2249 
N07500 G01 X-60.3031 Y35.1540 
N07510 G01 X-60.3031 Y19.7069 
N07520 G01 X-57.0853 Y19.7069 
N07530 G01 X-56.9584 Y19.6817 
N07540 G01 X-56.8388 Y19.6321 
N07550 G01 X-56.7313 Y19.5602 
N07560 G01 X-56.6398 Y19.4687 
N07570 G01 X-56.5679 Y19.3612 
N07580 G01 X-56.5183 Y19.2416 
N07590 G01 X-56.4931 Y19.1147 
N07600 G01 X-56.4931 Y15.8969 
N07610 G01 X-35.4953 Y15.8969 
N07620 G01 X-35.3684 Y15.8717 
N07630 G01 X-35.2488 Y15.8221 
N07640 G01 X-35.1412 Y15.7502 
N07650 G01 X-35.0498 Y15.6587 
N07660 G01 X-34.9779 Y15.5512 
N07670 G01 X-34.9283 Y15.4316 
N07680 G01 X-34.9031 Y15.3047 
N07690 G01 X-34.9031 Y13.8649 
N07700 G01 X-34.5144 Y13.8649 
N07710 G01 X-34.4597 Y13.8422 
N07720 G01 X-34.4178 Y13.8003 
N07730 G01 X-34.3951 Y13.7456 
N07740 G01 X-34.3951 Y11.6544 
N07750 G01 X-34.4178 Y11.5997 
N07760 G01 X-34.4597 Y11.5578 
N07770 G01 X-34.5144 Y11.5351 
N07780 G01 X-34.9031 Y11.5351 
N07790 G01 X-34.9031 Y9.5469 
N07800 G01 X-31.5433 Y9.5469 
N07810 G01 X-31.5433 Y9.8340 
N07820 G01 X-31.5206 Y9.8887 
N07830 G01 X-31.4787 Y9.9306 
N07840 G01 X-31.4240 Y9.9533 
N07850 G01 X-29.5360 Y9.9533 
N07860 G01 X-29.4813 Y9.9306 
N07870 G00 Z2.5400 
N07880 G00 X-31.8778 Y11.5997 
N07890 G01 Z-0.1778 F254.00 
N07900 G01 X-31.9197 Y11.5578 F1000.00 
N07910 G01 X-31.9744 Y11.5351 
N07920 G01 X-34.0656 Y11.5351 
N07930 G01 X-34.1203 Y11.5578 
N07940 G01 X-34.1622 Y11.5997 
N07950 G01 X-34.1849 Y11.6544 
N07960 G01 X-34.1849 Y13.7456 
N07970 G01 X-34.1622 Y13.8003 
N07980 G01 X-34.1203 Y13.8422 
N07990 G01 X-34.0656 Y13.8649 
N08000 G01 X-31.9744 Y13.8649 
N08010 G01 X-31.9197 Y13.8422 
N08020 G01 X-31.8778 Y13.8003 
N08030 G01 X-31.8551 Y13.7456 
N08040 G01 X-31.8551 Y11.6544 
N08050 G01 X-31.8778 Y11.5997 
N08060 G00 Z2.5400 
N08070 G00 X-36.9578 Y11.5997 
N08080 G01 Z-0.1778 F254.00 
N08090 G01 X-36.9997 Y11.5578 F1000.00 
N08100 G01 X-37.0544 Y11.5351 
N08110 G01 X-39.1456 Y11.5351 
N08120 G01 X-39.2003 Y11.5578 
N08130 G01 X-39.2422 Y11.5997 
N08140 G01 X-39.2649 Y11.6544 
N08150 G01 X-39.2649 Y13.7456 
N08160 G01 X-39.2422 Y13.8003 
N08170 G01 X-39.2003 Y13.8422 
N08180 G01 X-39.1456 Y13.8649 
N08190 G01 X-37.0544 Y13.8649 
N08200 G01 X-36.9997 Y13.8422 
N08210 G01 X-36.9578 Y13.8003 
N08220 G01 X-36.9351 Y13.7456 
N08230 G01 X-36.9351 Y11.6544 
N08240 G01 X-36.9578 Y11.5997 
N08250 G00 Z2.5400 
N08260 G00 X-39.4978 Y11.5997 
N08270 G01 Z-0.1778 F254.00 
N08280 G01 X-39.5397 Y11.5578 F1000.00 
N08290 G01 X-39.5944 Y11.5351 
N08300 G01 X-39.9831 Y11.5351 
N08310 G01 X-39.9831 Y8.8253 
N08320 G01 X-40.0083 Y8.6984 
N08330 G01 X-40.0579 Y8.5788 
N08340 G01 X-40.1298 Y8.4712 
N08350 G01 X-40.2212 Y8.3798 
N08360 G01 X-40.3288 Y8.3079 
N08370 G01 X-40.4484 Y8.2583 
N08380 G01 X-40.5753 Y8.2331 
N08390 G01 X-59.6890 Y8.2331 
N08400 G01 X-59.7540 Y8.2330 
N08410 G01 X-59.8168 Y8.2454 
N08420 G01 X-59.8809 Y8.2581 
N08430 G01 X-59.9407 Y8.2828 
N08440 G01 X-60.0005 Y8.3075 
N08450 G01 X-60.0543 Y8.3434 
N08460 G01 X-63.8108 Y10.8477 
N08470 G01 X-63.8633 Y10.8827 
N08480 G01 X-63.9182 Y10.9193 
N08490 G01 X-63.9633 Y10.9643 
N08500 G01 X-64.0098 Y11.0107 
N08510 G01 X-64.0454 Y11.0639 
N08520 G01 X-64.0818 Y11.1182 
N08530 G01 X-64.1063 Y11.1773 
N08540 G01 X-64.1315 Y11.2377 
N08550 G01 X-64.1442 Y11.3016 
N08560 G01 X-64.1568 Y11.3646 
N08570 G01 X-64.1569 Y11.4293 
N08580 G01 X-64.1570 Y11.4940 
N08590 G01 X-64.1569 Y38.1647 
N08600 G01 X-64.1317 Y38.2916 
N08610 G01 X-64.0821 Y38.4112 
N08620 G01 X-64.0102 Y38.5187 
N08630 G01 X-63.9187 Y38.6102 
N08640 G01 X-63.8112 Y38.6821 
N08650 G01 X-63.6916 Y38.7317 
N08660 G01 X-63.5647 Y38.7569 
N08670 G01 X-61.4335 Y38.7569 
N08680 G01 X-60.7665 Y40.7579 
N08690 G01 X-60.7903 Y40.7678 
N08700 G01 X-60.8322 Y40.8097 
N08710 G01 X-60.8549 Y40.8644 
N08720 G01 X-60.8549 Y42.9556 
N08730 G01 X-60.8322 Y43.0103 
N08740 G01 X-60.7903 Y43.0522 
N08750 G01 X-60.7356 Y43.0749 
N08760 G01 X-60.5929 Y43.0749 
N08770 G01 X-61.5915 Y48.0681 
N08780 G01 X-61.6044 Y48.1327 
N08790 G01 X-61.6168 Y48.1946 
N08800 G01 X-61.6169 Y48.2593 
N08810 G01 X-61.6170 Y48.3240 
N08820 G01 X-61.6045 Y48.3871 
N08830 G01 X-61.5919 Y48.4509 
N08840 G01 X-61.5671 Y48.5110 
N08850 G01 X-61.5425 Y48.5705 
N08860 G01 X-61.5069 Y48.6240 
N08870 G01 X-61.4707 Y48.6782 
N08880 G01 X-61.4257 Y48.7233 
N08890 G01 X-61.3793 Y48.7698 
N08900 G01 X-61.3261 Y48.8054 
N08910 G01 X-61.2718 Y48.8418 
N08920 G01 X-61.2127 Y48.8663 
N08930 G01 X-61.1523 Y48.8915 
N08940 G01 X-61.0884 Y48.9042 
N08950 G01 X-61.0254 Y48.9168 
N08960 G01 X-60.9607 Y48.9169 
N08970 G01 X-60.8960 Y48.9170 
N08980 G01 X-27.8753 Y48.9169 
N08990 G01 X-27.7484 Y48.8917 
N09000 G01 X-27.6288 Y48.8421 
N09010 G01 X-27.5212 Y48.7702 
N09020 G01 X-27.4298 Y48.6787 
N09030 G01 X-27.3579 Y48.5712 
N09040 G01 X-27.3083 Y48.4516 
N09050 G01 X-27.2831 Y48.3247 
N09060 G01 X-27.2831 Y43.0749 
N09070 G01 X-26.8944 Y43.0749 
N09080 G01 X-26.8397 Y43.0522 
N09090 G01 X-26.7978 Y43.0103 
N09100 G01 X-26.7751 Y42.9556 
N09110 G01 X-26.7751 Y40.8644 
N09120 G01 X-26.7978 Y40.8097 
N09130 G01 X-26.8397 Y40.7678 
N09140 G01 X-26.8944 Y40.7451 
N09150 G01 X-28.9856 Y40.7451 
N09160 G01 X-29.0403 Y40.7678 
N09170 G01 X-29.0822 Y40.8097 
N09180 G01 X-29.1049 Y40.8644 
N09190 G01 X-29.1049 Y42.9556 
N09200 G01 X-29.0822 Y43.0103 
N09210 G01 X-29.0403 Y43.0522 
N09220 G01 X-28.9856 Y43.0749 
N09230 G01 X-28.5969 Y43.0749 
N09240 G01 X-28.5969 Y47.6031 
N09250 G01 X-41.2531 Y47.6031 
N09260 G01 X-41.2531 Y43.0749 
N09270 G01 X-40.8644 Y43.0749 
N09280 G01 X-40.8097 Y43.0522 
N09290 G01 X-40.7678 Y43.0103 
N09300 G01 X-40.7451 Y42.9556 
N09310 G01 X-40.7451 Y40.8644 
N09320 G01 X-40.7678 Y40.8097 
N09330 G01 X-40.8097 Y40.7678 
N09340 G01 X-40.8644 Y40.7451 
N09350 G01 X-42.9556 Y40.7451 
N09360 G01 X-43.0103 Y40.7678 
N09370 G01 X-43.0522 Y40.8097 
N09380 G01 X-43.0749 Y40.8644 
N09390 G01 X-43.0749 Y42.9556 
N09400 G01 X-43.0522 Y43.0103 
N09410 G01 X-43.0103 Y43.0522 
N09420 G01 X-42.9556 Y43.0749 
N09430 G01 X-42.5669 Y43.0749 
N09440 G01 X-42.5669 Y47.6031 
N09450 G01 X-60.1587 Y47.6031 
N09460 G01 X-59.2531 Y43.0749 
N09470 G01 X-58.6444 Y43.0749 
N09480 G01 X-58.5897 Y43.0522 
N09490 G01 X-58.5478 Y43.0103 
N09500 G01 X-58.5251 Y42.9556 
N09510 G01 X-58.5251 Y40.8644 
N09520 G01 X-58.5478 Y40.8097 
N09530 G01 X-58.5897 Y40.7678 
N09540 G01 X-58.6444 Y40.7451 
N09550 G01 X-59.3859 Y40.7451 
N09560 G01 X-60.3238 Y37.9314 
N09570 G01 X-60.3283 Y37.9084 
N09580 G01 X-60.3442 Y37.8702 
N09590 G01 X-60.3573 Y37.8309 
N09600 G01 X-60.3689 Y37.8105 
N09610 G01 X-60.3779 Y37.7888 
N09620 G01 X-60.4008 Y37.7544 
N09630 G01 X-60.4213 Y37.7185 
N09640 G01 X-60.4367 Y37.7007 
N09650 G01 X-60.4498 Y37.6812 
N09660 G01 X-60.4790 Y37.6520 
N09670 G01 X-60.5061 Y37.6207 
N09680 G01 X-60.5247 Y37.6063 
N09690 G01 X-60.5412 Y37.5898 
N09700 G01 X-60.5756 Y37.5668 
N09710 G01 X-60.6084 Y37.5414 
N09720 G01 X-60.6293 Y37.5309 
N09730 G01 X-60.6488 Y37.5179 
N09740 G01 X-60.6871 Y37.5020 
N09750 G01 X-60.7241 Y37.4835 
N09760 G01 X-60.7467 Y37.4773 
N09770 G01 X-60.7684 Y37.4683 
N09780 G01 X-60.8090 Y37.4603 
N09790 G01 X-60.8489 Y37.4493 
N09800 G01 X-60.8723 Y37.4477 
N09810 G01 X-60.8953 Y37.4431 
N09820 G01 X-60.9367 Y37.4431 
N09830 G01 X-60.9780 Y37.4402 
N09840 G01 X-61.0012 Y37.4431 
N09850 G01 X-62.8431 Y37.4431 
N09860 G01 X-62.8431 Y12.0869 
N09870 G01 X-58.3149 Y12.0869 
N09880 G01 X-58.3149 Y12.4756 
N09890 G01 X-58.2922 Y12.5303 
N09900 G01 X-58.2503 Y12.5722 
N09910 G01 X-58.1956 Y12.5949 
N09920 G01 X-56.1044 Y12.5949 
N09930 G01 X-56.0497 Y12.5722 
N09940 G01 X-56.0078 Y12.5303 
N09950 G01 X-55.9851 Y12.4756 
N09960 G01 X-55.9851 Y10.3844 
N09970 G01 X-56.0078 Y10.3297 
N09980 G01 X-56.0497 Y10.2878 
N09990 G01 X-56.1044 Y10.2651 
N10000 G01 X-58.1956 Y10.2651 
N10010 G01 X-58.2503 Y10.2878 
N10020 G01 X-58.2922 Y10.3297 
N10030 G01 X-58.3149 Y10.3844 
N10040 G01 X-58.3149 Y10.7731 
N10050 G01 X-61.3304 Y10.7731 
N10060 G01 X-59.4911 Y9.5469 
N10070 G01 X-41.2969 Y9.5469 
N10080 G01 X-41.2969 Y11.5351 
N10090 G01 X-41.6856 Y11.5351 
N10100 G01 X-41.7403 Y11.5578 
N10110 G01 X-41.7822 Y11.5997 
N10120 G01 X-41.8049 Y11.6544 
N10130 G01 X-41.8049 Y13.7456 
N10140 G01 X-41.7822 Y13.8003 
N10150 G01 X-41.7403 Y13.8422 
N10160 G01 X-41.6856 Y13.8649 
N10170 G01 X-39.5944 Y13.8649 
N10180 G01 X-39.5397 Y13.8422 
N10190 G01 X-39.4978 Y13.8003 
N10200 G01 X-39.4751 Y13.7456 
N10210 G01 X-39.4751 Y11.6544 
N10220 G01 X-39.4978 Y11.5997 
N10230 G00 Z2.5400 
N10240 G00 X-42.0378 Y11.5997 
N10250 G01 Z-0.1778 F254.00 
N10260 G01 X-42.0797 Y11.5578 F1000.00 
N10270 G01 X-42.1344 Y11.5351 
N10280 G01 X-44.2256 Y11.5351 
N10290 G01 X-44.2803 Y11.5578 
N10300 G01 X-44.3222 Y11.5997 
N10310 G01 X-44.3449 Y11.6544 
N10320 G01 X-44.3449 Y13.7456 
N10330 G01 X-44.3222 Y13.8003 
N10340 G01 X-44.2803 Y13.8422 
N10350 G01 X-44.2256 Y13.8649 
N10360 G01 X-42.1344 Y13.8649 
N10370 G01 X-42.0797 Y13.8422 
N10380 G01 X-42.0378 Y13.8003 
N10390 G01 X-42.0151 Y13.7456 
N10400 G01 X-42.0151 Y11.6544 
N10410 G01 X-42.0378 Y11.5997 
N10420 G00 Z2.5400 
N10430 G00 X-42.0328 Y16.6405 
N10440 G01 Z-0.1778 F254.00 
N10450 G01 X-44.1240 Y16.6405 F1000.00 
N10460 G01 X-44.1787 Y16.6632 
N10470 G01 X-44.2206 Y16.7051 
N10480 G01 X-44.2433 Y16.7598 
N10490 G01 X-44.2433 Y18.8510 
N10500 G01 X-44.2206 Y18.9057 
N10510 G01 X-44.1787 Y18.9476 
N10520 G01 X-44.1240 Y18.9703 
N10530 G01 X-42.0328 Y18.9703 
N10540 G01 X-41.9781 Y18.9476 
N10550 G01 X-41.9362 Y18.9057 
N10560 G01 X-41.9135 Y18.8510 
N10570 G01 X-41.9135 Y16.7598 
N10580 G01 X-41.9362 Y16.7051 
N10590 G01 X-41.9781 Y16.6632 
N10600 G01 X-42.0328 Y16.6405 
N10610 G00 Z2.5400 
N10620 G00 X-44.4762 Y16.7051 
N10630 G01 Z-0.1778 F254.00 
N10640 G01 X-44.5181 Y16.6632 F1000.00 
N10650 G01 X-44.5728 Y16.6405 
N10660 G01 X-46.6640 Y16.6405 
N10670 G01 X-46.7187 Y16.6632 
N10680 G01 X-46.7606 Y16.7051 
N10690 G01 X-46.7833 Y16.7598 
N10700 G01 X-46.7833 Y18.8510 
N10710 G01 X-46.7606 Y18.9057 
N10720 G01 X-46.7187 Y18.9476 
N10730 G01 X-46.6640 Y18.9703 
N10740 G01 X-44.5728 Y18.9703 
N10750 G01 X-44.5181 Y18.9476 
N10760 G01 X-44.4762 Y18.9057 
N10770 G01 X-44.4535 Y18.8510 
N10780 G01 X-44.4535 Y16.7598 
N10790 G01 X-44.4762 Y16.7051 
N10800 G00 Z2.5400 
N10810 G00 X-44.4762 Y19.2451 
N10820 G01 Z-0.1778 F254.00 
N10830 G01 X-44.5181 Y19.2032 F1000.00 
N10840 G01 X-44.5728 Y19.1805 
N10850 G01 X-46.6640 Y19.1805 
N10860 G01 X-46.7187 Y19.2032 
N10870 G01 X-46.7606 Y19.2451 
N10880 G01 X-46.7833 Y19.2998 
N10890 G01 X-46.7833 Y21.3910 
N10900 G01 X-46.7606 Y21.4457 
N10910 G01 X-46.7187 Y21.4876 
N10920 G01 X-46.6640 Y21.5103 
N10930 G01 X-44.5728 Y21.5103 
N10940 G01 X-44.5181 Y21.4876 
N10950 G01 X-44.4762 Y21.4457 
N10960 G01 X-44.4535 Y21.3910 
N10970 G01 X-44.4535 Y19.2998 
N10980 G01 X-44.4762 Y19.2451 
N10990 G00 Z2.5400 
N11000 G00 X-44.2206 Y19.2451 
N11010 G01 Z-0.1778 F254.00 
N11020 G01 X-44.2433 Y19.2998 F1000.00 
N11030 G01 X-44.2433 Y21.3910 
N11040 G01 X-44.2206 Y21.4457 
N11050 G01 X-44.1787 Y21.4876 
N11060 G01 X-44.1240 Y21.5103 
N11070 G01 X-42.0328 Y21.5103 
N11080 G01 X-41.9781 Y21.4876 
N11090 G01 X-41.9362 Y21.4457 
N11100 G01 X-41.9135 Y21.3910 
N11110 G01 X-41.9135 Y19.2998 
N11120 G01 X-41.9362 Y19.2451 
N11130 G01 X-41.9781 Y19.2032 
N11140 G01 X-42.0328 Y19.1805 
N11150 G01 X-44.1240 Y19.1805 
N11160 G01 X-44.1787 Y19.2032 
N11170 G01 X-44.2206 Y19.2451 
N11180 G00 Z2.5400 
N11190 G00 X-44.1787 Y21.7432 
N11200 G01 Z-0.1778 F254.00 
N11210 G01 X-44.2206 Y21.7851 F1000.00 
N11220 G01 X-44.2433 Y21.8398 
N11230 G01 X-44.2433 Y23.9310 
N11240 G01 X-44.2206 Y23.9857 
N11250 G01 X-44.1787 Y24.0276 
N11260 G01 X-44.1240 Y24.0503 
N11270 G01 X-42.0328 Y24.0503 
N11280 G01 X-41.9781 Y24.0276 
N11290 G01 X-41.9362 Y23.9857 
N11300 G01 X-41.9135 Y23.9310 
N11310 G01 X-41.9135 Y21.8398 
N11320 G01 X-41.9362 Y21.7851 
N11330 G01 X-41.9781 Y21.7432 
N11340 G01 X-42.0328 Y21.7205 
N11350 G01 X-44.1240 Y21.7205 
N11360 G01 X-44.1787 Y21.7432 
N11370 G00 Z2.5400 
N11380 G00 X-44.4762 Y21.7851 
N11390 G01 Z-0.1778 F254.00 
N11400 G01 X-44.5181 Y21.7432 F1000.00 
N11410 G01 X-44.5728 Y21.7205 
N11420 G01 X-46.6640 Y21.7205 
N11430 G01 X-46.7187 Y21.7432 
N11440 G01 X-46.7606 Y21.7851 
N11450 G01 X-46.7833 Y21.8398 
N11460 G01 X-46.7833 Y23.9310 
N11470 G01 X-46.7606 Y23.9857 
N11480 G01 X-46.7187 Y24.0276 
N11490 G01 X-46.6640 Y24.0503 
N11500 G01 X-44.5728 Y24.0503 
N11510 G01 X-44.5181 Y24.0276 
N11520 G01 X-44.4762 Y23.9857 
N11530 G01 X-44.4535 Y23.9310 
N11540 G01 X-44.4535 Y21.8398 
N11550 G01 X-44.4762 Y21.7851 
N11560 G00 Z2.5400 
N11570 G00 X-44.2803 Y26.7978 
N11580 G01 Z-0.1778 F254.00 
N11590 G01 X-44.3222 Y26.8397 F1000.00 
N11600 G01 X-44.3449 Y26.8944 
N11610 G01 X-44.3449 Y28.9856 
N11620 G01 X-44.3222 Y29.0403 
N11630 G01 X-44.2803 Y29.0822 
N11640 G01 X-44.2256 Y29.1049 
N11650 G01 X-42.1344 Y29.1049 
N11660 G01 X-42.0797 Y29.0822 
N11670 G01 X-42.0378 Y29.0403 
N11680 G01 X-42.0151 Y28.9856 
N11690 G01 X-42.0151 Y26.8944 
N11700 G01 X-42.0378 Y26.8397 
N11710 G01 X-42.0797 Y26.7978 
N11720 G01 X-42.1344 Y26.7751 
N11730 G01 X-44.2256 Y26.7751 
N11740 G01 X-44.2803 Y26.7978 
N11750 G00 Z2.5400 
N11760 G00 X-41.7403 Y26.7978 
N11770 G01 Z-0.1778 F254.00 
N11780 G01 X-41.7822 Y26.8397 F1000.00 
N11790 G01 X-41.8049 Y26.8944 
N11800 G01 X-41.8049 Y28.9856 
N11810 G01 X-41.7822 Y29.0403 
N11820 G01 X-41.7403 Y29.0822 
N11830 G01 X-41.6856 Y29.1049 
N11840 G01 X-39.5944 Y29.1049 
N11850 G01 X-39.5397 Y29.0822 
N11860 G01 X-39.4978 Y29.0403 
N11870 G01 X-39.4751 Y28.9856 
N11880 G01 X-39.4751 Y26.8944 
N11890 G01 X-39.4978 Y26.8397 
N11900 G01 X-39.5397 Y26.7978 
N11910 G01 X-39.5944 Y26.7751 
N11920 G01 X-41.6856 Y26.7751 
N11930 G01 X-41.7403 Y26.7978 
N11940 G00 Z2.5400 
N11950 G00 X-39.2003 Y26.7978 
N11960 G01 Z-0.1778 F254.00 
N11970 G01 X-39.2422 Y26.8397 F1000.00 
N11980 G01 X-39.2649 Y26.8944 
N11990 G01 X-39.2649 Y28.9856 
N12000 G01 X-39.2422 Y29.0403 
N12010 G01 X-39.2003 Y29.0822 
N12020 G01 X-39.1456 Y29.1049 
N12030 G01 X-37.0544 Y29.1049 
N12040 G01 X-36.9997 Y29.0822 
N12050 G01 X-36.9578 Y29.0403 
N12060 G01 X-36.9351 Y28.9856 
N12070 G01 X-36.9351 Y26.8944 
N12080 G01 X-36.9578 Y26.8397 
N12090 G01 X-36.9997 Y26.7978 
N12100 G01 X-37.0544 Y26.7751 
N12110 G01 X-39.1456 Y26.7751 
N12120 G01 X-39.2003 Y26.7978 
N12130 G00 Z2.5400 
N12140 G00 X-36.6603 Y26.7978 
N12150 G01 Z-0.1778 F254.00 
N12160 G01 X-36.7022 Y26.8397 F1000.00 
N12170 G01 X-36.7249 Y26.8944 
N12180 G01 X-36.7249 Y28.9856 
N12190 G01 X-36.7022 Y29.0403 
N12200 G01 X-36.6603 Y29.0822 
N12210 G01 X-36.6056 Y29.1049 
N12220 G01 X-34.5144 Y29.1049 
N12230 G01 X-34.4597 Y29.0822 
N12240 G01 X-34.4178 Y29.0403 
N12250 G01 X-34.3951 Y28.9856 
N12260 G01 X-34.3951 Y26.8944 
N12270 G01 X-34.4178 Y26.8397 
N12280 G01 X-34.4597 Y26.7978 
N12290 G01 X-34.5144 Y26.7751 
N12300 G01 X-34.9031 Y26.7751 
N12310 G01 X-34.9031 Y25.3353 
N12320 G01 X-34.9283 Y25.2084 
N12330 G01 X-34.9779 Y25.0888 
N12340 G01 X-35.0498 Y24.9812 
N12350 G01 X-35.1412 Y24.8898 
N12360 G01 X-35.2488 Y24.8179 
N12370 G01 X-35.3684 Y24.7683 
